priban42/ObjectTrackingDataset/joint_states.csv
time,joint_0,joint_1,joint_2,joint_3,joint_4,joint_5,joint_6,x,y,z,qw,qx,qy,qz
1691406519.4002237,-0.07160510938808119,-0.35180521071582954,0.05032926733553574,-2.2772792104641613,-0.12252837814887364,1.8823491738180125,0.9423925136576096,0.4405840880379769,-0.017133762509935285,0.4918664505209261,0.06932107036761521,0.8923055139934589,-0.4459694504763064,0.009834029785316974
1691406519.501339,-0.07160870247916246,-0.3518035393039287,0.05032592657208442,-2.2772792014198546,-0.12252644536892573,1.8823510251551405,0.9423960740417241,0.44058488087835007,-0.017133533820705468,0.49186735200723886,0.0693202329654326,0.8923059910750926,-0.4459686213394422,0.009834244948760005
1691406519.6010218,-0.07160703383589918,-0.35180521071051235,0.05032397773025328,-2.2772775308709394,-0.12252883405817878,1.8823503171173321,0.9423974981953699,0.4405852017765901,-0.01713544508703303,0.4918667126082335,0.06932029142289067,0.8923045912276624,-0.4459714202608135,0.009833919952531847
1691406519.7010877,-0.07160341262133928,-0.3517999210023043,0.05032397773025328,-2.277281118991547,-0.12252705572048823,1.8823484220107405,0.9423925136576096,0.4405847109679432,-0.01713479289184975,0.49186574257337656,0.0693220190055752,0.8923047600911647,-0.44597084179344354,0.009832653237404027
1691406519.8010762,-0.07160247811955722,-0.35180354027997424,0.05032230729439802,-2.2772828205844813,-0.12252776779731114,1.8823487695920122,0.9423946498880783,0.4405850431313921,-0.01713433001158763,0.49186571357902953,0.06932103021142486,0.892305091495428,-0.44597032117276947,0.009833163011938394
1691406519.900303,-0.07160509376400129,-0.35180354027999067,0.050325926572078926,-2.2772792287788945,-0.12252776779731114,1.8823478452935483,0.9423974981953699,0.44058466532489743,-0.01713445338411007,0.491866628257432,0.06932097419513818,0.8923055214844388,-0.4459694502847385,0.009834036696538512
1691406520.0009015,-0.07160341163476511,-0.35180354027999067,0.05032592657208442,-2.277279201306795,-0.12252705572048823,1.8823510136643598,0.942396786118547,0.4405849981091906,-0.01713374534924042,0.4918668768992645,0.06932057174471873,0.8923056407962048,-0.4459692408825018,0.009835543856071454
1691406520.1009195,-0.07160341298206235,-0.35180354027999067,0.05032592657208442,-2.277279201306795,-0.12252648486006898,1.88235172014295,0.9423960740417241,0.4405843426843697,-0.01713457027833033,0.4918673422024668,0.06932073849471584,0.8923047734194938,-0.4459709680841306,0.009834743181013825
1691406520.2001803,-0.07160918820594946,-0.3518014134089265,0.05032926646946205,-2.2772808718557043,-0.12252705572048823,1.8823498510118675,0.942396786118547,0.4405846407548363,-0.01713497823055204,0.49186874503498645,0.06931995882536775,0.8923045208643025,-0.44597158846451784,0.009835020895335878
1691406520.301172,-0.07160703127781996,-0.3518035373638053,0.05032397773025328,-2.277282857213953,-0.12252573329210281,1.8823492581498447,0.9423960740417241,0.44058513135963423,-0.017133263222800246,0.49186659344272343,0.06932149638175683,0.8923065169523734,-0.44596738458709306,0.009833708774702483
1691406520.4003084,-0.0716094248497198,-0.3518018698441354,0.05032397773025328,-2.2772828205844813,-0.12252644536892573,1.8823507143050109,0.9423932257344324,0.4405844947127016,-0.017134332802334964,0.4918648803015502,0.06932194095873895,0.8923051161135345,-0.4459701560998555,0.009831995097398242
1691406520.5007958,-0.07160532320412581,-0.3518035402799906,0.05032397773025328,-2.2772808717428075,-0.12252705572048823,1.882349147169516,0.9423974981953699,0.4405841677171483,-0.017136184478807055,0.49186561748142,0.06932158801594766,0.8923039797918215,-0.44597246741801355,0.009832771110559826
1691406520.6009955,-0.07160703091379211,-0.3517999122537488,0.05032592657208442,-2.2772844910203367,-0.12252644536892573,1.8823494892383639,0.9423960740417241,0.44058457293001024,-0.017135302011786726,0.49186660576648344,0.06932049883700049,0.8923044319540153,-0.44597171242745887,0.009833660088259194
1691406520.7013578,-0.07160730569043762,-0.351805210715846,0.05032397773025328,-2.2772792013068006,-0.12252837814887364,1.882352606109554,0.9423974981953699,0.440584816881705,-0.01713429753409554,0.49186251020694527,0.06932266818018241,0.8923049832884525,-0.4459703621175835,0.009829577187561018
1691406520.8008611,-0.07160435869040027,-0.35180186984408607,0.05032397773025326,-2.2772808992189426,-0.12252705572048823,1.882351300271593,0.942396786118547,0.4405849704892635,-0.017132762421385037,0.49186519424408365,0.06932105153259581,0.8923058221151658,-0.445968841669047,0.009833813815693981
1691406520.9002724,-0.07160367471014663,-0.35180354027999067,0.05032592657208442,-2.277279201306795,-0.12252644536892573,1.8823544510656325,0.942396786118547,0.4405850678241808,-0.017134102945605762,0.4918632569363275,0.06932291726777877,0.892304619130793,-0.4459710328011447,0.009830448698592141
1691406521.0010307,-0.07160197926541939,-0.35180521071540155,0.05032397773025328,-2.277281118991547,-0.12252837814887364,1.8823510133965213,0.9423953619649011,0.4405848782661305,-0.017132621976068567,0.49186553061019844,0.06932175899072751,0.8923055329363541,-0.4459693390216856,0.009832511081180575
1691406521.100921,-0.07160509087988155,-0.351805210715846,0.05032592657208259,-2.2772808717426676,-0.12252705572048823,1.8823501993850706,0.942396786118547,0.44058547025432754,-0.017134428802424592,0.49186595452089876,0.06932090386718123,0.8923050198836993,-0.4459704828305231,0.009833220291340513
1691406521.2006645,-0.0716045823910834,-0.35180354027999067,0.05032592657208442,-2.2772836447474707,-0.12252705572048823,1.882349846387924,0.9423953619649011,0.44058579515437235,-0.017133981629451688,0.4918667517788849,0.06932083065224227,0.8923051598837508,-0.4459701915227875,0.009834244030186085
1691406521.3010457,-0.071604582786747,-0.351805210715846,0.05032397773025328,-2.2772828205844813,-0.12252705572048823,1.88235161403124,0.9423946498880783,0.4405848060686768,-0.017136092570603334,0.4918657374777484,0.06932096294623646,0.8923045265538461,-0.4459714768214661,0.009832489481492235
1691406521.400264,-0.07160826533802364,-0.35180354027999067,0.05032066316152144,-2.2772828205844813,-0.12252644536892573,1.882351263878348,0.9423925136576096,0.440585022001318,-0.017133778578951212,0.491865544368116,0.06932150821494906,0.8923054098954006,-0.44596961608154123,0.009832878636923493
1691406521.5008786,-0.07160703383589559,-0.35180354027999067,0.05032592657208443,-2.2772808462328435,-0.12252706888420264,1.8823515338725503,0.9423909877787032,0.4405853180008726,-0.017132286139362206,0.49186621140523673,0.06932176664445787,0.8923061518028955,-0.44596806952679324,0.00983387444217548
1691406521.6008515,-0.07160510871446439,-0.35180186984413364,0.05032397773023679,-2.2772775308709394,-0.12252644536892573,1.882350918902412,0.9423946498880783,0.4405847447425515,-0.017131963029901488,0.49186593511472754,0.06932154561093651,0.8923060895087283,-0.44596820248444613,0.009835055289340294
1691406521.7005517,-0.07160412300738164,-0.3518018698441354,0.05032230729439802,-2.277279201306795,-0.12252705572048823,1.8823485442891494,0.9423960740417241,0.44058530919705274,-0.017131346282612224,0.4918651443333115,0.06932217878985308,0.8923074688609246,-0.44596539193939416,0.009832890479420545
1691406521.8009593,-0.07160367472202102,-0.35180688111569897,0.05032397773025328,-2.277280874795106,-0.12252705572048823,1.8823485789962364,0.9423909877787032,0.4405849584585614,-0.017133472922061795,0.491865889119036,0.06932162081321212,0.8923065953194464,-0.44596721599964356,0.00983336619750475
1691406521.900245,-0.07160582755978376,-0.3518035402759904,0.05032397769416688,-2.2772828206221662,-0.12252644536892573,1.8823502386409,0.9423960740417241,0.4405850401993963,-0.01713636741610414,0.49186663354126337,0.06932054696800671,0.8923039021003565,-0.4459727703082466,0.009833423011430165
1691406522.0006957,-0.07160729481672451,-0.35180354027999067,0.05032592657208442,-2.2772881134635323,-0.12252776779731206,1.8823509058032042,0.9423974981953699,0.4405853901551338,-0.01713351274822822,0.4918658522422482,0.06932118774416376,0.8923056562788618,-0.44596917549988624,0.009832761892768108
1691406522.1008945,-0.07160748477733082,-0.3518052107156814,0.05032397773025328,-2.2772808717426503,-0.1225277677973194,1.8823502140741142,0.9423925136576096,0.44058439941793953,-0.017132615676234503,0.4918656837317935,0.06932140052896836,0.8923061819049034,-0.44596808012610917,0.009833243189720436
1691406522.2003033,-0.07160721293686709,-0.35180354027999067,0.05032397773025328,-2.2772808717426503,-0.12252573329210281,1.882349847618231,0.9423925136576096,0.44058421302563744,-0.017135957481601738,0.4918641592095913,0.06932132102842842,0.8923039280771563,-0.4459726488266734,0.009831118322514884
1691406522.3007565,-0.07160509376396637,-0.35180520779966085,0.05032397773025328,-2.2772775308709394,-0.12252705572048823,1.8823492926860448,0.9423932257344324,0.44058530717136724,-0.01713613401530576,0.4918658877110456,0.06932061156529082,0.8923038320598209,-0.4459729197162713,0.009832547142903929
1691406522.400249,-0.07160518827290499,-0.35180354027999067,0.05032592657208442,-2.277279201306795,-0.12252644536892573,1.882349173333493,0.942396786118547,0.4405854015923337,-0.017134433692875945,0.49186584970630154,0.06932175928304392,0.8923057725474264,-0.44596884894913913,0.009832992190794535
1691406522.5009682,-0.07160580590928535,-0.35180687823551604,0.05032592657208442,-2.277279201306795,-0.12252644536892573,1.8823492518437703,0.9423909877787032,0.4405855206869028,-0.01713386255964268,0.4918652428685041,0.0693216640906696,0.8923052688831203,-0.44596985314376597,0.00983382418240504
1691406522.6006687,-0.07160729542598826,-0.35180354027999067,0.05032397773025328,-2.2772775308709394,-0.12252776779731114,1.8823492520411624,0.9423939363577051,0.4405852719431362,-0.01713333376362885,0.4918651711523223,0.06932095025355085,0.8923055526478907,-0.44596942486693314,0.009832530373411677
1691406522.7004268,-0.07160341553760609,-0.35180521060783915,0.05032397773025328,-2.277282820923643,-0.12252644536892573,1.8823495396828025,0.9423916998555262,0.4405852912822184,-0.01713362142030416,0.4918682491816639,0.06932016423054926,0.8923059126606038,-0.44596875420773935,0.009835818846121811
1691406522.8007808,-0.0716041222604181,-0.35180521039177604,0.05032592657208442,-2.2772830969827216,-0.12252705572048823,1.8823491399024372,0.9423960740417241,0.44058453397790587,-0.01713349627664354,0.49186582416177943,0.06932106363789721,0.8923065388993564,-0.4459674064262117,0.009833777455278157
1691406522.9002979,-0.07160774412418125,-0.3518035402799395,0.050322228361404375,-2.277282820626353,-0.12252776779731114,1.8823533841123306,0.9423932257344324,0.4405843342784412,-0.01713453339736097,0.4918657176851987,0.06932105714120522,0.8923046128519407,-0.44597127434025735,0.009833177680733962
1691406523.0008135,-0.07160516976236316,-0.3518035140343241,0.05032592657208442,-2.2772808717426503,-0.12252705572048823,1.882349885484681,0.942396786118547,0.44058520064913065,-0.01713360695864243,0.4918666586508296,0.06932069363092154,0.8923057179187278,-0.4459691047832011,0.009833859005587845
1691406523.101238,-0.07160341455909851,-0.35180354027999067,0.05032592657208442,-2.2772828205844813,-0.12252776779731114,1.882350791432013,0.9423953619649011,0.44058461389390885,-0.017135185165319887,0.4918650263754535,0.06932133408494136,0.8923044915190972,-0.44597148774226036,0.009832556965723388
1691406523.2007186,-0.071607744160715,-0.3518051834981176,0.05032230729439802,-2.277280871742656,-0.12252644536892573,1.882350193725692,0.9423946498880783,0.44058531157121333,-0.017134515202935404,0.49186545026210976,0.06932219737725366,0.8923050415421885,-0.4459702634704082,0.00983208468825989
1691406523.301056,-0.07160805995636473,-0.3518052107158442,0.05032397773025328,-2.2772808717426503,-0.12252644536892573,1.8823523134871347,0.942396786118547,0.44058461525244264,-0.017134321247886074,0.4918665994030136,0.06932076619931586,0.8923054977018751,-0.445969536630271,0.009833745081617046
1691406523.4003015,-0.0716018552003122,-0.3518018698441354,0.050325926572089924,-2.277284500177703,-0.12252776779753408,1.8823491340875715,0.9423916998555262,0.4405844459579,-0.0171320898886831,0.4918646960831346,0.06932212500700845,0.8923064048794476,-0.4459675564142656,0.00983165405803741
1691406523.5009248,-0.07160466163725873,-0.35180186984368916,0.05032592657208443,-2.2772808717426503,-0.12252644536892573,1.8823491340875707,0.9423960740417241,0.4405851284002104,-0.01713374889629727,0.4918650809700075,0.06932152009980314,0.8923050619125096,-0.4459703259530403,0.009832177058217585
1691406523.6010084,-0.07160534525059821,-0.35180521070384463,0.05032326744156971,-2.2772792013081906,-0.12252705572048823,1.8823498868637931,0.9423939378112554,0.44058512052146104,-0.017135293687721445,0.4918666517405289,0.06932073425780534,0.8923047032266122,-0.4459711321219357,0.009833703041345074
1691406523.7005987,-0.07160706014783297,-0.3518028316469917,0.05032397773025328,-2.2772825144667994,-0.12252776779731114,1.8823484350993378,0.9423909877787032,0.44058513360941604,-0.017135173283062195,0.4918668254838528,0.06931922828438179,0.892305364213672,-0.4459700099808004,0.009835231735392148
1691406523.8009443,-0.07160341260929398,-0.35180354027999067,0.05032397773025328,-2.2772844920382873,-0.12252644536892573,1.8823513917728958,0.9423946498880783,0.4405855251836696,-0.017133823373298565,0.49186690663313143,0.06931973102524973,0.8923054558603916,-0.44596975158962665,0.00983509021069889
1691406523.900196,-0.07160365819088466,-0.351805210715846,0.05032592657208442,-2.2772777781198363,-0.12252705572048823,1.8823524351061611,0.9423925136576096,0.440584599477013,-0.017132790522551983,0.491866516362535,0.06932123709948566,0.8923062246625091,-0.44596801177893236,0.009833615077012118
1691406524.0012825,-0.07160349056825255,-0.35180354027999067,0.05032397773025328,-2.2772808717426503,-0.12252644536893399,1.8823485398021484,0.9423960740417241,0.44058535558736345,-0.01713636288005747,0.4918659303890786,0.06932050171035634,0.8923040434566929,-0.44597251025150764,0.009832709363629939
1691406524.1008081,-0.07160342142637985,-0.35179974383713164,0.050325923649085724,-2.2772828205844813,-0.12252776779731114,1.88235031146327,0.9423960740417241,0.4405848314586725,-0.017134498045884947,0.4918658275648099,0.06932091494185899,0.8923055317539036,-0.4459694695664983,0.009832648045315414
1691406524.2005289,-0.07160582170157971,-0.35180354027999067,0.05032592657208442,-2.277277530870991,-0.12252705572048823,1.8823516140071044,0.9423909877787032,0.4405853980476467,-0.017133605428728722,0.4918673911910657,0.069320516672713,0.8923063564901886,-0.44596784711940834,0.009834199058005696
1691406524.300696,-0.07160582195416802,-0.35180186984280204,0.050327360245045166,-2.2772808717426507,-0.12252706904671765,1.882349138466232,0.9423932257344324,0.4405849479678097,-0.01713290175003945,0.4918658511323926,0.06932079138074974,0.8923060542207601,-0.4459684360501668,0.009832981760004071
1691406524.4003131,-0.0716055689526427,-0.3518018698441354,0.05032230729439802,-2.2772792104641613,-0.12252705572048823,1.8823487752261818,0.9423916998555262,0.44058556898364715,-0.01713339931078038,0.4918674856427461,0.0693204887037498,0.8923055938817176,-0.4459693580750714,0.009835071498335691
1691406524.50103,-0.07160729497022851,-0.35180354027999067,0.05032592657208442,-2.2772828205844813,-0.12252776779731114,1.8823506600203037,0.9423932257284507,0.4405844454410211,-0.017135341943720368,0.49186487772179877,0.06932196853974631,0.8923046038044717,-0.44597117927229385,0.009831885149785287
1691406524.6010132,-0.07160349154213912,-0.3518052107158442,0.05032592657208442,-2.2772828205844813,-0.12252705572048823,1.8823523523195875,0.942396786118547,0.44058432754327487,-0.01713436710244187,0.49186570784574546,0.069321089788821,0.8923050123568813,-0.4459704718962372,0.009833088524142315
1691406524.7004929,-0.07161013561821869,-0.35180354027954625,0.05032397773025328,-2.277282848056581,-0.12252705572048823,1.882349251825141,0.942396786118547,0.4405857255211845,-0.017135403926744668,0.49186827457016274,0.06931964744109831,0.8923047093913904,-0.44597125311176194,0.009835317712854227
1691406524.800839,-0.07160511238319987,-0.3518018698441354,0.05032230729439802,-2.2772808717552118,-0.12252644536892573,1.8823510133586627,0.9423916998555262,0.4405861399286562,-0.017133577687831622,0.4918652196275283,0.06932076371697742,0.8923055532707597,-0.44596943171534553,0.009833478293569823
1691406524.9002166,-0.07160579333499029,-0.3517999210023043,0.050325926463825214,-2.2772775308709394,-0.12252776779731114,1.8823494931151379,0.9423953619649011,0.44058530569186866,-0.017134897579340544,0.49186737035011463,0.06932033519961947,0.8923052627622834,-0.44597006993000665,0.00983391586143568
1691406525.0012221,-0.07160508208413245,-0.35180354027999067,0.05032230729439802,-2.277282131819697,-0.12252837814887364,1.8823498461644101,0.9423939378112554,0.4405857358190402,-0.0171335328589517,0.4918666945742589,0.0693209787825413,0.892305056548652,-0.44597038016399404,0.009834021289386194
1691406525.1010008,-0.0716058582209301,-0.3518044933342915,0.05032397773025328,-2.2772775308709394,-0.1225264454230974,1.8823526998097864,0.9423916998555262,0.44058526798107556,-0.017134550123714287,0.4918651385151262,0.0693211061236358,0.8923057732642691,-0.4459689550996678,0.00983271744540016
1691406525.2004926,-0.07160535488383198,-0.35180354027999067,0.05032592657208442,-2.277279201306795,-0.12252776779731114,1.8823506730672523,0.9423916998555262,0.4405846305708579,-0.01713293559206053,0.49186495467873975,0.06932231388761596,0.8923056280062064,-0.4459690572653255,0.009832750764316703
1691406525.301007,-0.07160388216915217,-0.35180354027999067,0.05032397480725458,-2.2772808717426503,-0.12252705572048823,1.882350679379192,0.942396786118547,0.4405847997811926,-0.017135154311428175,0.49186828711465375,0.0693193977538394,0.892304833652057,-0.44597102869338084,0.009835979991213693
1691406525.4002488,-0.07160703091245031,-0.35180354027999067,0.05032397480725458,-2.2772828205844813,-0.12252644536892583,1.8823523523202603,0.9423960740417241,0.4405850145099154,-0.017136093498667033,0.4918678264872063,0.06932129907095089,0.8923040137214345,-0.44597238493388913,0.009835469897922246
1691406525.500919,-0.07160412192349615,-0.35180186984278555,0.05032397773025328,-2.277281118991547,-0.12252644536892573,1.8823492518969127,0.9423916998555262,0.4405852614718787,-0.017133878654684367,0.4918625030334449,0.06932311758214219,0.8923055359800826,-0.44596919307916166,0.009829275268896364
1691406525.601196,-0.07160372733081648,-0.35180354027999067,0.05032397773025328,-2.2772808717426503,-0.12252705572048823,1.8823533728015938,0.9423974981953699,0.4405846018776987,-0.017133593392942126,0.4918664362724119,0.06932097905540237,0.8923063548612561,-0.44596779835657435,0.009833298836531347
1691406525.7005103,-0.07160349185617519,-0.3518018610955799,0.05032396895724759,-2.2772828205844813,-0.12252776779731114,1.8823491340898024,0.9423916998555262,0.4405859386757402,-0.017135333275822125,0.49186748769325456,0.06932010581883262,0.8923056168972034,-0.4459693915824901,0.009834162623759257
1691406525.8015196,-0.07160509087616844,-0.35180354027999067,0.05032397773025328,-2.2772808717426503,-0.12252680078921495,1.8823516057705907,0.9423916998555262,0.44058477017862785,-0.017133728534094273,0.49186415125266836,0.06932228563928995,0.8923063943800503,-0.44596756406184174,0.009831127451410628
1691406525.9002235,-0.07160510837775756,-0.3518018698441354,0.05032326744156971,-2.2772828205844813,-0.12252776779731114,1.8823510298470076,0.9423953619649011,0.4405846246461202,-0.017134502120108263,0.49186662075888515,0.06932241288468131,0.8923047999274902,-0.4459706567125567,0.009834655539387034
1691406526.000938,-0.07160174130716765,-0.35179992099030355,0.05032592657208442,-2.277279201306795,-0.12252644536892573,1.882348899277682,0.9423953619649011,0.4405848309334418,-0.017132190687702654,0.49186412034895827,0.06932197331341054,0.8923066805188237,-0.445967041009877,0.009831085917009699
1691406526.1009176,-0.07160182024031161,-0.35179974394513847,0.05032592657208442,-2.2772788054482977,-0.12252837814887364,1.882352326264019,0.9423953619649011,0.44058489866288886,-0.017134235039424996,0.49186585743969913,0.06932109364859118,0.8923048031611546,-0.44597088902694154,0.009833126228003424
1691406526.2005212,-0.07160508207195508,-0.35180354027999067,0.05032592657208442,-2.2772775308710944,-0.12252705572650731,1.882353878665389,0.942396786118547,0.4405852089652974,-0.01713312354352037,0.4918651269733723,0.06932165545883363,0.8923052791622378,-0.4459698609902264,0.009832596402061338
1691406526.300922,-0.07160420084976517,-0.351805210715846,0.05032397773025328,-2.2772808717426503,-0.12252776779731114,1.8823498505276957,0.9423960740417241,0.4405856234471634,-0.01713282950803041,0.4918675136502392,0.06932007353980116,0.8923064923086501,-0.4459676257810318,0.009835036527595025
1691406526.4001977,-0.07160625278951407,-0.3518028316469917,0.05032592657208442,-2.2772828205844813,-0.12252776779731114,1.8823498519785864,0.9423960740417241,0.4405845684565266,-0.017134397232340816,0.49186809108482216,0.06932079622341754,0.8923061874686687,-0.4459681198905205,0.009835194832584259
1691406526.501015,-0.0716070342689361,-0.35180186984408607,0.05032230729439802,-2.277284492037977,-0.12252644536892573,1.8823485529917672,0.9423967468726904,0.44058455889562076,-0.01713534375128129,0.49186497920833183,0.0693217425636321,0.8923057332186443,-0.44596894721054087,0.009832222383620595
1691406526.6007984,-0.07160792420371163,-0.3518067761688677,0.05032397773025328,-2.2772828205844813,-0.12252705572048823,1.8823509062932346,0.9423960740417241,0.4405846529092527,-0.01713331895640174,0.49186657727559685,0.06932050595493963,0.8923058188674677,-0.44596893627919587,0.009833663783732566
1691406526.7010005,-0.07160364839765782,-0.35180354027999067,0.05032230729439802,-2.277280872081812,-0.12252705572048823,1.8823517397937197,0.9423953619649011,0.44058491494159085,-0.01713189180620415,0.4918673111492565,0.06932113233250861,0.8923065656937755,-0.44596732403704303,0.00983459827129803
1691406526.801002,-0.0716034379551332,-0.35180354027999067,0.05032063685854275,-2.2772808717426503,-0.12252644553144072,1.882352317871931,0.9423946498880783,0.44058593956849273,-0.01713441205040215,0.4918652007462415,0.06932129122271442,0.8923049960954119,-0.4459704733715224,0.009833077197032107
1691406526.9001899,-0.07160721585966776,-0.35180353995597013,0.05032592657208442,-2.2772808717426503,-0.12252705572048823,1.8823545528957468,0.9423932257344324,0.44058532640848164,-0.017134654687339972,0.49186581172684546,0.06932152787826877,0.8923049595661001,-0.44597051644732877,0.009832770009795341
1691406527.0009906,-0.07160726772479818,-0.351805210715846,0.05032926744379495,-2.27727920130695,-0.12252776779731114,1.8823491341055074,0.9423974981953699,0.44058450436700486,-0.01713540601366014,0.49186341621840657,0.06932192459689727,0.8923054563839657,-0.445969515185114,0.0098303002568101
1691406527.1008587,-0.07161018779935818,-0.351805210715846,0.05032592657074789,-2.2772792287788945,-0.12252788627074088,1.8823502402400265,0.9423960740417213,0.4405841209032626,-0.017132792274153683,0.49186550000766605,0.06932225205600488,0.8923055864450695,-0.44596915756822564,0.009832408997367627
1691406527.2007458,-0.07160587425153161,-0.35180354027865723,0.05032592657208442,-2.277279201306795,-0.12252776779731114,1.88234959944116,0.9423953619642366,0.4405850724663095,-0.01713278119791705,0.4918652708462712,0.06932084129308207,0.8923059886968746,-0.44596853255314495,0.009834199027211539
1691406527.3010054,-0.07160350029905897,-0.3518018698441352,0.050323977730247785,-2.2772828205844813,-0.12252705572048823,1.8823487753849586,0.9423960740417241,0.44058555394102306,-0.017135403542645884,0.49186697385937267,0.06931957476053834,0.8923053064492146,-0.44597007177440573,0.009835228473347142
1691406527.4002776,-0.07160412485090106,-0.3518035140343241,0.05032592657208442,-2.2772792104641613,-0.12252705572048823,1.882350200832713,0.942396786118547,0.4405847292098804,-0.017134723890551803,0.4918640052731797,0.06932241815992178,0.8923050931519353,-0.44597015291583186,0.009830858752234698
1691406527.5008788,-0.0716071102706276,-0.3518018698401352,0.05032230729439802,-2.2772830969827216,-0.12252644536892573,1.8823494877870048,0.942392513496104,0.4405851325121365,-0.01713390271491523,0.4918651007883308,0.06932119326501932,0.892305539537426,-0.44596942444990595,0.00983202578090215
1691406527.600859,-0.07160924069966311,-0.3518018698441354,0.05032592657208442,-2.2772828205844813,-0.12252573329210281,1.8823530266958233,0.9423925136576096,0.44058406754301027,-0.017131214586341485,0.491864806087834,0.06932239435776413,0.8923070009483747,-0.44596630766341233,0.009832300243924534
1691406527.7004926,-0.07160420376802139,-0.35180354027999067,0.05032397675592038,-2.2772844910203367,-0.1225270557746599,1.8823509062872532,0.9423946498880783,0.4405847364530389,-0.017135283046172168,0.4918656477093142,0.06932085031927497,0.8923046724239475,-0.4459711656338403,0.009834160086052212
1691406527.8009057,-0.07160350322250111,-0.3518035402679881,0.05032397773025328,-2.2772809541589494,-0.12252644536892573,1.8823498854643073,0.9423916998555262,0.44058480677071743,-0.01713263099033624,0.49186628056431464,0.06932089228908357,0.8923054432961074,-0.44596962658108136,0.009833713617627174
1691406527.900216,-0.07160531916234962,-0.3518035373638053,0.050323977730203785,-2.2772828205844813,-0.12252644536892573,1.8823492925265333,0.9423939378112554,0.44058503626513706,-0.0171326329545511,0.4918659138813698,0.06932092317596636,0.892305785554014,-0.44596894104767193,0.00983352925881219
1691406528.0009418,-0.07160510852195284,-0.35180353930792896,0.05032592657208442,-2.2772808717426676,-0.12252776779731114,1.8823527130705904,0.9423939378112554,0.4405847364576518,-0.017134302583462963,0.49186668919623877,0.06932050451983218,0.8923050511009972,-0.4459704585672968,0.00983430312923484
1691406528.1011856,-0.07160776751213364,-0.351803539295928,0.05032230729439802,-2.2772844910203367,-0.12252898850043614,1.8823517588506762,0.9423925136576096,0.44058509567996557,-0.017131871812048886,0.4918643067252927,0.06932229053711599,0.8923071079797673,-0.4459661064714005,0.009832444366023319
1691406528.2006786,-0.07160727157267745,-0.3518018698441354,0.05032592657208442,-2.277279201306795,-0.12252778096102555,1.882350910163243,0.9423939378111815,0.4405851228834875,-0.017135638127570303,0.4918633652519832,0.0693221193101198,0.8923045976980155,-0.4459711981830925,0.009830518423412569
1691406528.301064,-0.07160633185525354,-0.35180308481551553,0.050322307294397406,-2.2772828205844813,-0.12252705572048823,1.8823491399735766,0.9423932257344324,0.44058579248355567,-0.017134331435281928,0.491866768098134,0.06932022378704675,0.8923046944884393,-0.44597122055494975,0.009834083827950243
1691406528.4002504,-0.07160516099163451,-0.35180354027999067,0.05032592657208442,-2.277279201306795,-0.12252705572048823,1.8823498461891983,0.9423932257344324,0.440585671799004,-0.017133567949073482,0.49186758038621503,0.06931938727533944,0.8923064715453713,-0.44596777484778816,0.009834997881718288
1691406528.5007489,-0.07160703416029242,-0.3518035140343241,0.05032759697185329,-2.2772808717426503,-0.12252705572048823,1.8823485397549802,0.9423953619649011,0.44058517389884366,-0.017132175312154156,0.4918665693428691,0.06932116240265934,0.8923055997544515,-0.44596926927691277,0.009833816685779826
1691406528.600701,-0.07160508510187652,-0.351805210715846,0.05032230729439802,-2.277279201306795,-0.12252776779731114,1.8823538404061881,0.9423974981953699,0.4405846147360936,-0.017134328612449803,0.4918665976035811,0.06932075777525645,0.8923050175487397,-0.4459704971100128,0.009833814430607522
1691406528.7005646,-0.07160246025663881,-0.351805210715846,0.05032757070095141,-2.277279201306795,-0.12252573329210281,1.8823538390423624,0.9423946498880783,0.44058410088858413,-0.017134356147325454,0.49186495706479805,0.06932133810240344,0.8923050331137833,-0.44597040389855164,0.009832538332759032
1691406528.8007693,-0.07160532273085084,-0.3517999210023041,0.050325926680343636,-2.2772775308709394,-0.12252705572048823,1.882349487792986,0.9423946498880783,0.4405853819679813,-0.017133776868045077,0.4918658734446023,0.06932146985023295,0.8923053818540958,-0.4459696762127565,0.00983296652636588
1691406528.9002984,-0.07160508640100348,-0.351805210715846,0.05032592657208443,-2.2772850458245526,-0.12252705572048823,1.8823498854282636,0.942396786118547,0.44058530895219483,-0.01713274792162604,0.4918651889148386,0.06932232284943371,0.8923058433093284,-0.4459686136521411,0.009833269444819303
1691406529.0010607,-0.07160517365840856,-0.35180354027984256,0.05032592657208442,-2.2772808717426503,-0.12252837814887364,1.8823494874677595,0.9423960740417241,0.44058506168545836,-0.017134715842858736,0.4918650727188438,0.06932127580153483,0.8923061040063319,-0.4459682906483647,0.00983164332471236
1691406529.1010985,-0.0716055425010124,-0.35180354027999067,0.05032397773025328,-2.2772844910203425,-0.12252644536892573,1.8823538395887154,0.9423916998554523,0.4405853715347923,-0.01713199250467626,0.49186614761655156,0.0693213993462441,0.8923073881605224,-0.445965625465518,0.009835117181543682
1691406529.2004833,-0.07160581867045572,-0.35180186983213285,0.05032592657208442,-2.2772808717426503,-0.12252705572048823,1.8823509058206813,0.9423946498880783,0.44058526160725636,-0.017134698194862064,0.4918652206936164,0.06932201965649355,0.8923052449882213,-0.44596986186528603,0.009833090313463107
1691406529.3012989,-0.07160373025364997,-0.35180354027999067,0.05032592657193592,-2.2772844910203367,-0.12252776795982613,1.8823524326955356,0.9423932257344324,0.440585333333641,-0.017133700916198737,0.4918634625498079,0.06932271802778264,0.8923063324698166,-0.44596761361023,0.009831450061018116
1691406529.4002883,-0.0716051610036786,-0.35179974390869173,0.050325926572078926,-2.2772808717426503,-0.12252644536892573,1.8823530255898755,0.9423932257344324,0.440585437924783,-0.01713549251484861,0.49186709759165526,0.06932060186487858,0.8923042609508085,-0.44597203209946545,0.009833952979136714
1691406529.5012324,-0.07160710983392651,-0.3518068811517012,0.05032397773025328,-2.277279201306795,-0.12252705572048823,1.882353142822325,0.9423953619649011,0.4405855539241283,-0.017134195496241057,0.4918669259991019,0.0693199601989114,0.8923050385836332,-0.44597054484281773,0.009835363179999817
1691406529.6011636,-0.0716055454238622,-0.351805210715846,0.05032592657208442,-2.277279201306795,-0.12252705572048823,1.8823491864402948,0.9423974981953699,0.440584795874667,-0.017133666642356098,0.49186509509235843,0.06932166243427117,0.8923055581641008,-0.4459692861656851,0.009833299734613176
1691406529.7008784,-0.0716058056067832,-0.35180354027996874,0.050322307184802274,-2.2772844910203367,-0.12252705572048823,1.8823530643247148,0.9423946498880783,0.44058529701316823,-0.017131895339244377,0.491866661953357,0.06932120860968674,0.8923069219694516,-0.44596660711574226,0.009834245266845726
1691406529.8008935,-0.07160511130061081,-0.35179921236930534,0.05032397773025328,-2.277280872081812,-0.12252644536892573,1.8823491733872544,0.9423953619649011,0.44058583120817574,-0.017132255933568943,0.49186823528560597,0.0693196634059886,0.8923060476745003,-0.44596857019279545,0.009835443507357131
1691406529.900308,-0.0716036756829939,-0.3518018432731148,0.05032592657208442,-2.27727920232428,-0.12252705572048823,1.8823491340884513,0.9423902757018804,0.4405850646753653,-0.01713425626468893,0.4918650393887068,0.06932107463633225,0.8923059825485997,-0.4459685681134533,0.00983149907583307
1691406530.0010414,-0.07160579239940043,-0.3518052107158441,0.05032592657208442,-2.2772844913594987,-0.12252776779731114,1.8823523136486415,0.9423916998555262,0.44058483900209044,-0.017133502813323518,0.49186579210785597,0.06932126571239113,0.8923050000820452,-0.4459704742527446,0.009832855302274967
1691406530.1006527,-0.07160516110163057,-0.35180354027999067,0.05032397773025328,-2.2772775308709394,-0.12252776779731114,1.8823510235404057,0.9423960740417241,0.4405847129913067,-0.017134753032749268,0.4918645005518537,0.06932174134813675,0.8923052327921364,-0.4459699194634394,0.009833546766387084
1691406530.2003107,-0.07160512040779946,-0.35180354027999067,0.050327597007939685,-2.2772775308709394,-0.12252705572048823,1.8823512595000367,0.9423916998555262,0.44058583773998555,-0.01713291957723671,0.491865071062097,0.06932189417636339,0.8923062932751392,-0.4459677959304171,0.009832546076580354
1691406530.300715,-0.0716037274269495,-0.35180687239914543,0.050327597007939685,-2.2772792013081906,-0.12252574645581722,1.8823492697523259,0.9423925136576096,0.44058508146543873,-0.017134448446364418,0.49186438132086235,0.06932185308873283,0.8923052269693171,-0.44596993466944723,0.009832597749756086
1691406530.4002903,-0.07160420116933826,-0.3518018698441354,0.050327597007939685,-2.277279201306795,-0.12252644536892573,1.882350199377128,0.9423925136576096,0.4405848940621379,-0.017135122003676534,0.4918670068971047,0.06932015369765751,0.8923049730628403,-0.44597068633814557,0.009833527634598018
1691406530.500927,-0.07160341586134393,-0.35180186980813316,0.05032397773025328,-2.277282820597043,-0.12252644536892573,1.8823491864156667,0.9423960740417241,0.4405851077492533,-0.017134414102023248,0.49186812470066466,0.06932080434145564,0.8923052495383883,-0.44596999342000093,0.009835278371885137
1691406530.6007037,-0.07160352693087253,-0.3518017911066911,0.05032397773025328,-2.2772808718557043,-0.12252705572048823,1.8823491776947592,0.9423925136576096,0.4405857611036407,-0.017132986748364706,0.4918667023519767,0.06932130289661126,0.8923068437008278,-0.4459667545826074,0.009833994937927745
1691406530.7004588,-0.07160782012212018,-0.351805210715846,0.05032207053150347,-2.2772828205844813,-0.12252644536892573,1.882349134249101,0.9423932257344324,0.440584192182638,-0.017135241240807574,0.49186562330547157,0.06932105226805119,0.8923045026874316,-0.44597151081144876,0.009832483955707107
1691406530.801055,-0.07160341585707643,-0.3517999210023043,0.05032592657208442,-2.2772808717426503,-0.12252776779731114,1.8823506599666984,0.9423895636250574,0.44058508250543,-0.01713461602039002,0.49186811355524784,0.06931997798269784,0.8923060887242096,-0.445968456175882,0.00983467204749552
1691406530.900292,-0.07160516104370819,-0.3518018698441354,0.05032397773025328,-2.277280871742656,-0.12252705572048823,1.8823522314702903,0.9423916998555262,0.44058442864607417,-0.017134560611937112,0.4918648548539613,0.06932175407805079,0.892305703851902,-0.4459690189277057,0.009831553364741438
1691406531.0010948,-0.07160916210332739,-0.3518018697361286,0.05032592657208442,-2.2772828205844813,-0.12252573329210281,1.8823499682632792,0.9423974981953699,0.4405853969251416,-0.017134379531956005,0.49186741755567154,0.06932076777738724,0.8923058465267288,-0.4459688235064837,0.009834422668066745
1691406531.101037,-0.07160387498795927,-0.3518034615429908,0.05032397773025328,-2.2772808717426503,-0.12252705572048823,1.8823559644631824,0.9423925136576096,0.44058524516497133,-0.017134479738093497,0.49186672581349233,0.06932082780921638,0.8923047128948455,-0.4459710838871728,0.009834353765889882
1691406531.2004013,-0.07160341260924469,-0.351803304068991,0.05032397773025328,-2.277279201306795,-0.12252706890225987,1.8823505614799845,0.9423916998555262,0.44058526918266033,-0.017132781228168307,0.49186448691399254,0.06932041104677279,0.8923058092371873,-0.4459689890364801,0.009832814025225843
1691406531.3010404,-0.07160508207066865,-0.351805207799659,0.05032230729439802,-2.277273911593253,-0.12252705572048823,1.8823498461663801,0.942396786118547,0.4405849934623618,-0.017131904207225452,0.4918658544186162,0.06932159823267416,0.8923061259598023,-0.4459681554045972,0.00983351199206237
1691406531.400321,-0.07160557757818603,-0.3518035402799905,0.050322070531501666,-2.2772808717426503,-0.12252705572048823,1.8823523668398774,0.942396786118547,0.4405846448599747,-0.017134342612159292,0.4918650097292221,0.06932131749162843,0.8923058495363375,-0.4459687765915342,0.009832402041719092
1691406531.5011735,-0.07160703091304356,-0.3518018698441354,0.05032592657074789,-2.2772775308709394,-0.12252644536892573,1.8823540847349218,0.9423953619649011,0.44058508513181344,-0.017133785677995676,0.4918650620849383,0.06932130363682248,0.8923057488024025,-0.44596899351804536,0.009831802315790594
1691406531.6009235,-0.07160510939248171,-0.35180354027599037,0.05032230729439802,-2.2772808717426503,-0.12252648486006898,1.8823534118860106,0.9423974981953699,0.4405855696035381,-0.01713381201452656,0.49186598261879516,0.06932112233080887,0.8923062778235511,-0.44596792622946607,0.00983348005876621
1691406531.7010045,-0.07160511173429321,-0.35180179110708615,0.05032397773025328,-2.2772775308709394,-0.12252573329210281,1.8823510628038864,0.9423946498880783,0.4405851860819246,-0.017133634451266217,0.4918651206418038,0.0693214219421987,0.8923057639331671,-0.44596893387072833,0.009832300532666375
1691406531.8010743,-0.07160387510826909,-0.35180354027999067,0.05032397773025328,-2.277280871427714,-0.12252644536892573,1.8823491341440899,0.9423925136576096,0.4405847361739975,-0.017133639271052107,0.4918648992396006,0.06932103623800663,0.8923052327995912,-0.44597005402697576,0.00983241397280656
1691406531.9002786,-0.07160341168690446,-0.3518018698441184,0.05032230729439802,-2.2772792104641613,-0.12252776779731114,1.8823502386309274,0.9423946498880783,0.4405852289724358,-0.017135462569247886,0.49186615619473917,0.06932026514919075,0.8923043730103839,-0.4459718468888056,0.009834557884289037
1691406532.0011303,-0.07160581902868897,-0.35180354027999067,0.05032397773025328,-2.2772808717426503,-0.12252741114077745,1.8823491864153716,0.9423974981953699,0.44058530850269084,-0.017133606627128414,0.4918667306513052,0.06932077505313737,0.892305341476487,-0.4459698321542065,0.009834456106519014
1691406532.1008272,-0.07160413182315556,-0.3518018697361286,0.05032397773025328,-2.2772828205844813,-0.12252776779731114,1.8823498902620557,0.9423953619649011,0.44058490558376107,-0.017132703179720116,0.4918656905721206,0.06932159353052822,0.8923065690731047,-0.4459672863688371,0.009832748760571606
1691406532.2004967,-0.07160519606773318,-0.35180688115168457,0.05032230729439802,-2.277279201306795,-0.12252573329210284,1.8823498854641016,0.9423909877787032,0.4405844714214799,-0.01713480833723237,0.4918659283426584,0.06932131970163516,0.8923048910454086,-0.44597066453244577,0.009833739255952472
1691406532.3010416,-0.07160174221348521,-0.3518016326597406,0.050323977730203785,-2.277280874795106,-0.12252776779731114,1.882351053932519,0.942396786118547,0.4405848906309139,-0.017133460480096445,0.4918650298107784,0.06932147595781368,0.8923053674425921,-0.44596968841024665,0.009833678021908378
1691406532.4002318,-0.07160729218241156,-0.3518035402759904,0.05032592657208442,-2.2772775308709394,-0.12252573329210281,1.882350712294942,0.9423946498880783,0.4405848510255147,-0.017134350144195933,0.49186570993980144,0.06932124960844183,0.8923047030775118,-0.4459710738929304,0.00983272440700622
1691406532.5008266,-0.07160508218041219,-0.35180354027999067,0.05032592657208442,-2.2772808717426503,-0.12252705572048823,1.8823530251326086,0.9423946498880783,0.44058554642437137,-0.01713304870953043,0.49186428663468246,0.06932197385230918,0.8923053468262614,-0.4459696935586015,0.009831805212279544
1691406532.6011622,-0.07160508207078946,-0.35180354027999045,0.05032926744379495,-2.2772828205886686,-0.12252573329210281,1.8823502037444004,0.9423953619649011,0.4405843566356447,-0.017132605536124567,0.4918650805318774,0.0693210041921714,0.8923067986299815,-0.4459669073671806,0.009833261404794656
1691406532.7003734,-0.07160703384753402,-0.35180330406899096,0.05032521628340085,-2.2772808717426503,-0.12252705572048823,1.8823484627122167,0.9423974981953699,0.4405850836799921,-0.017131893208104428,0.49186592133699136,0.06932142157521136,0.8923066230006715,-0.4459671820530547,0.009833798431266907
1691406532.8007512,-0.0716001080574225,-0.3518051054091589,0.05032592657208442,-2.2772808717426503,-0.12252573329210281,1.8823512605248254,0.9423916998555262,0.4405849804170798,-0.017131909789406066,0.4918658448781754,0.0693216214971308,0.8923059621917296,-0.44596848005763073,0.009833484895326884
1691406532.9002519,-0.07160511130105145,-0.35180354027999067,0.05032397773025328,-2.2772808717426503,-0.12252573329210281,1.882353503964066,0.9423909877787032,0.4405857450475988,-0.01713363953384692,0.49186671683939165,0.06932064108586344,0.892305399804057,-0.4459697482829292,0.009833911552775453
1691406533.0011477,-0.0716091657120832,-0.3518035393079125,0.05032592657208442,-2.2772828205844813,-0.12252776779731116,1.882350212482974,0.9423916998555262,0.44058455035033467,-0.01713398855741955,0.49186652501259115,0.06932097265505963,0.8923052079163469,-0.4459700898791241,0.009833494227756152
1691406533.1013913,-0.07160603204564067,-0.3518035402799889,0.05032592657208442,-2.2772808717426503,-0.12252776779731114,1.8823507139099982,0.9423974981953699,0.44058510703417186,-0.017134462852545256,0.4918650945887434,0.06932208457454506,0.892304810105246,-0.44597073696266093,0.009832406941416958
1691406533.20029,-0.0716034379791982,-0.35180186984413364,0.05032592657208442,-2.2772780856751558,-0.12252644536892573,1.8823502000233416,0.9423902757018804,0.4405851946356268,-0.017135332514053622,0.49186703138031895,0.06932071601208552,0.8923053017225707,-0.4459699374367288,0.00983370489916791
1691406533.300586,-0.07160774264460633,-0.3518013881353271,0.050325926572034926,-2.277279201306795,-0.12252705572048823,1.882352352247811,0.942396786118547,0.4405852603082713,-0.01713424724446884,0.4918682370106918,0.06931959983223382,0.8923048512225327,-0.44597097084862347,0.009835584587055654
1691406533.4002717,-0.07160516113598386,-0.3518028316469917,0.05032397773025328,-2.277280871742652,-0.12252705572048823,1.8823499640820707,0.9423939378112554,0.44058522049618265,-0.01713112528264986,0.4918665785202666,0.06932115528027245,0.8923070849257161,-0.44596629952880473,0.00983378393923897
1691406533.5007627,-0.07160577929994323,-0.35180186983213285,0.05032592657208442,-2.2772808717426503,-0.12252705572048823,1.8823491341474077,0.9423932257344324,0.4405854401430264,-0.01713463890113185,0.4918642617859671,0.06932151008461274,0.8923048794597321,-0.44597071350609907,0.00983122712598139
1691406533.6009016,-0.07160649056325874,-0.35180354027999067,0.05032397773025328,-2.277279201306795,-0.12252644536892573,1.882352709821168,0.9423932257344324,0.44058499618271735,-0.017133578761423556,0.49186592368514936,0.06932063602746392,0.8923060187447066,-0.44596852555370964,0.009833236912093197
1691406533.7007308,-0.0716036600898559,-0.351805210715846,0.05032592657208442,-2.2772828205844813,-0.12252705572048823,1.8823501993791638,0.942396786118547,0.4405854498063496,-0.017134867033144024,0.49186688070520673,0.06931982564698025,0.8923053981387553,-0.4459698588888098,0.009834794731200913
1691406533.8010652,-0.07160602960468503,-0.351805210703845,0.05032230437139931,-2.2772828205844813,-0.12252705572048823,1.8823523542038931,0.9423909877787032,0.4405849185423839,-0.0171356730282204,0.4918659412076818,0.06932065632080237,0.8923057336915964,-0.4459690976340369,0.009833014992256986
1691406533.900358,-0.07160916471367802,-0.35180353736380554,0.05032397773025328,-2.277279201306795,-0.12252644537516774,1.8823530430059205,0.9423967861185462,0.44058468890275515,-0.0171319901599117,0.49186496202259594,0.0693217135170483,0.8923071358298704,-0.4459661397669344,0.009832474944420286
1691406534.0003352,-0.07160192333154068,-0.351805210715846,0.05032397773025328,-2.2772808717428052,-0.12252644536892573,1.8823499639567014,0.9423932257344324,0.44058547734743836,-0.0171311901360912,0.49186584160893604,0.06932175298512198,0.8923072818937008,-0.4459658280014559,0.009833081791638828
1691406534.1011524,-0.0716050830609915,-0.35179974393313773,0.05032758823894359,-2.2772808717426503,-0.12252776779731114,1.8823524321930718,0.9423960740417241,0.44058414599759027,-0.017134407720241326,0.4918655784865872,0.0693217754580214,0.8923051786571697,-0.44597004599432033,0.009832480092424264
1691406534.2013974,-0.07160517110780691,-0.3518018698441354,0.05032926744379495,-2.277279201306795,-0.12252644536892573,1.882351170162851,0.9423960740417241,0.4405841462906115,-0.017135894969695885,0.4918640741744648,0.06932123265381612,0.8923040133118212,-0.4459725019234354,0.009830669312108738
1691406534.3008118,-0.0716078299737359,-0.3518018698441354,0.05032397773025328,-2.2772808717426503,-0.12252705572048823,1.8823499774863692,0.9423946498880783,0.4405857676552835,-0.01713322754908721,0.49186665965209975,0.06932158957719613,0.8923068158540207,-0.4459667652026103,0.009834019202205899
1691406534.400261,-0.07160721405579555,-0.35180520974378243,0.05032592559760302,-2.277277530871405,-0.12252644536892604,1.88235023313513,0.9423925136576096,0.44058498049507044,-0.017135655153782035,0.4918643686663607,0.06932170233568682,0.8923051268870125,-0.44597016753161955,0.009832181256180402
1691406534.501088,-0.07160342148684629,-0.3518018698441354,0.05032397773025328,-2.2772828205844813,-0.12252776779731114,1.8823484220293847,0.9423909877787032,0.44058475069552616,-0.017134528215265336,0.4918641647458109,0.06932224573315637,0.8923050160057812,-0.4459703249473439,0.009831272745426998
1691406534.6011398,-0.07160197799929191,-0.3518018698441354,0.05032397773025328,-2.2772861614561917,-0.12252705572048823,1.8823494873003734,0.9423960740417241,0.4405847479370318,-0.017135941439163672,0.4918673526386125,0.06932036456772084,0.8923049258357827,-0.4459707378539481,0.009833990207525227
1691406534.7003694,-0.07160508309484856,-0.351805210715846,0.05032592657208442,-2.277279201419849,-0.12252778096102555,1.8823514917189286,0.9423916998555262,0.440585296775599,-0.017133330854018348,0.491865189575015,0.0693208952285758,0.8923053995033576,-0.44596973710280613,0.009832654286413427
1691406534.8008015,-0.07160703091646478,-0.3517977950991571,0.05032592559775152,-2.2772792023619646,-0.12252705572048823,1.8823512611168731,0.942396786118547,0.44058515182234775,-0.017132702296753573,0.49186658194782473,0.06932174959230032,0.8923060767876687,-0.44596822082991666,0.009833939752732007
1691406534.900316,-0.07160721731653902,-0.3518018698441354,0.05032230729439802,-2.2772792013444794,-0.12252837814887364,1.8823499682825477,0.9423939378112554,0.44058537454139185,-0.017134067207732376,0.4918673918488644,0.06932084194710769,0.8923059998567635,-0.44596850764414775,0.009834311415528861
1691406535.000922,-0.07160183181193368,-0.35180353732780323,0.05032592657208442,-2.2772844910203425,-0.12252776779731114,1.882350193893179,0.942396786118547,0.44058459063894045,-0.017134181540279098,0.4918665558670393,0.0693205824201875,0.8923056950287626,-0.4459691772945828,0.009833431514782174
1691406535.1011083,-0.07160349066978061,-0.35180179110713555,0.05032592657208442,-2.2772808718557043,-0.12252573329210281,1.8823506599724857,0.9423925136576096,0.4405857486394658,-0.017135217398986914,0.49186508587202366,0.06932078924081869,0.8923044961971771,-0.4459715741548861,0.00983205426881431
1691406535.2008028,-0.07160705733348861,-0.3518018698441354,0.05032397773025328,-2.2772775308709394,-0.12252644538700773,1.8823491343036527,0.9423974981953699,0.44058550205066105,-0.01713269965144821,0.4918658237030361,0.06932127396294477,0.8923056534067898,-0.4459691538212804,0.009833397905478691
1691406535.300916,-0.0716055428616858,-0.35180283153898484,0.05032592657208442,-2.277279201306795,-0.12252705572048823,1.8823507777040467,0.9423953619649011,0.44058550976588295,-0.01713415761399759,0.49186537098054084,0.06932087483546857,0.8923058365424632,-0.4459688441032605,0.009833639890809463
1691406535.400343,-0.07160509215260182,-0.3518035315314187,0.05032592657208442,-2.2772828205844813,-0.12252776779731114,1.8823540866788966,0.9423916998555262,0.4405842951216849,-0.01713784370273713,0.4918648569624704,0.06932124275421707,0.892302946078117,-0.44597462322962733,0.009831233824703465
1691406535.5009506,-0.0716087013536527,-0.3518035402799889,0.05032397773025328,-2.2772808717426503,-0.12252776779731145,1.882349964088126,0.9423939378112554,0.44058482396568127,-0.017133395413907064,0.49186652097748507,0.0693206435232417,0.8923065210508485,-0.44596750212213393,0.009834018639377695
1691406535.6008525,-0.07160197807008627,-0.351801869844119,0.05032397773025328,-2.277282820572817,-0.12252705572048823,1.8823542155364286,0.9423932257344324,0.4405851095652047,-0.01713435200022373,0.49186508831513376,0.06932180138287973,0.892305760199516,-0.44596888634388154,0.009832119862699166
1691406535.7004461,-0.0716072133095621,-0.35180141340848753,0.05032230729439802,-2.2772792013067966,-0.12252644536892573,1.8823507035737144,0.9423909877787032,0.4405847149733083,-0.017131950473955358,0.4918665780958057,0.06932103767770811,0.8923058698663351,-0.4459687411695676,0.009834136311849916
1691406535.801411,-0.07160556914611747,-0.3518028316469917,0.05032230729434852,-2.2772828205844813,-0.12252776779731114,1.8823495281877785,0.9423983119974533,0.440585623024742,-0.017133384454316947,0.4918654390397015,0.06932050421933543,0.8923048282849734,-0.44597090653526966,0.00983420755379019
1691406535.9003608,-0.0716074584685597,-0.351805210715846,0.050327597007939685,-2.2772758604350845,-0.12252573329210281,1.8823492520484828,0.9423909877787032,0.44058551085908554,-0.017133516549944067,0.4918674441408952,0.06932060602614541,0.8923057269811742,-0.44596907964449223,0.009834794243439212
1691406536.0008297,-0.07160726768871117,-0.35180354027999067,0.05032592657208436,-2.277279201306795,-0.12252705572048854,1.882350323163038,0.942396786118547,0.4405852681863025,-0.017134238503105872,0.4918682344171639,0.06932016156280986,0.8923046707629849,-0.44597123839711594,0.009835865900361021
1691406536.1008444,-0.07160343830395743,-0.3518018698441354,0.050327597007939685,-2.2772844910203367,-0.12252705572048823,1.882350660612495,0.9423909877787032,0.4405849755801316,-0.017133479875823844,0.4918673867592827,0.06932096285105642,0.8923061083435728,-0.4459682587420344,0.009834902986219517
1691406536.2005277,-0.07160344227218668,-0.351805210715846,0.05032592657208442,-2.2772808717426503,-0.12252644536892573,1.882349850527031,0.9423914709736904,0.440585460433055,-0.017131072347506472,0.4918661678154692,0.0693209596733922,0.8923067126187548,-0.4459670395750107,0.009835383986991502
1691406536.3008995,-0.07160531883753897,-0.351805210715846,0.05032397773025328,-2.277282820597043,-0.12252705572048823,1.8823484656238931,0.9423946498880783,0.44058542598303657,-0.017134328752219243,0.4918659010982991,0.06932108080178385,0.8923046101248897,-0.44597127827576627,0.009833079854250377
1691406536.4003184,-0.07160342043984803,-0.3518018698441354,0.05032397773025328,-2.2772808717426503,-0.12252644536892573,1.8823526662226608,0.9423946498880783,0.44058507423982995,-0.017134266969170885,0.4918650404035593,0.06932162142322133,0.8923052699549692,-0.44596990014031684,0.009831896189489717
1691406536.5005615,-0.07160531919452724,-0.35180353930792896,0.0503259265720844,-2.2772828205844813,-0.12252644536892573,1.8823498461653057,0.9423946498880783,0.4405848925554398,-0.01713523874845352,0.49186742474868284,0.06932007995897181,0.8923052577546754,-0.44597010778157653,0.009834452863938258
1691406536.6009624,-0.07160554545989889,-0.35180354027999067,0.05032397773025328,-2.277279201306795,-0.12252644536892573,1.8823501998682828,0.9423946498880783,0.440585276224557,-0.017133486290825138,0.49186631230257344,0.06932094130796568,0.8923050190986169,-0.445970472671939,0.009833488310967038
1691406536.7008972,-0.07160511166162335,-0.3518034615429908,0.05032397773025328,-2.2772808717426503,-0.12252644536892573,1.882349859247076,0.942396786118547,0.44058506512214285,-0.01713359946534683,0.4918680540154145,0.06932090529258694,0.8923050482022711,-0.44597038517945226,0.009835069143113653
1691406536.8010774,-0.07160918841161976,-0.35180186984413525,0.050327597007939685,-2.2772808717426503,-0.12252573329210281,1.8823537307039426,0.9423946498880783,0.4405844631029785,-0.01713465940247015,0.491863319803307,0.06932209275760126,0.8923053223017585,-0.44596976242524183,0.009830068668876668
1691406536.900565,-0.07160796133260043,-0.3518052107158459,0.05032230729439802,-2.2772808717426503,-0.12252705572048823,1.8823487926721076,0.9423960740417241,0.44058401623312166,-0.017132513605638507,0.49186480480537287,0.06932140792668527,0.8923059545668024,-0.4459685651453711,0.009831823323714274
1691406537.0008745,-0.07160774509866817,-0.3518033040689855,0.05032592657208442,-2.2772827532124276,-0.12252837814887364,1.8823492668453734,0.9423932257344324,0.4405851240559765,-0.01713519199184556,0.49186665143286434,0.06932074800601046,0.8923053897550929,-0.44596975840507114,0.009833610629957188
1691406537.1008992,-0.07160341260925059,-0.35180353736380554,0.05032592657208442,-2.2772828205844813,-0.12252644538698296,1.8823498858967527,0.9423909877787032,0.44058453457072133,-0.017134712776963802,0.49186482614887106,0.06932253937909207,0.8923055125537663,-0.44596926741789333,0.009832106536350223
1691406537.2002938,-0.07160516229203027,-0.3517998422653044,0.050327597007939685,-2.2772808717426503,-0.12252751162979338,1.88234985989332,0.9423932257344324,0.440584849316944,-0.017133963768212447,0.4918642538229694,0.06932319250683025,0.8923059608672463,-0.4459682687255953,0.009832114286171348
1691406537.3008885,-0.07160372775304559,-0.351805210715846,0.05032592657208442,-2.2772828205844813,-0.12252644536892573,1.8823498607244875,0.942396786118547,0.44058534397248333,-0.017135060482128546,0.4918662265326331,0.06932094136773341,0.8923046243151367,-0.4459712214144486,0.009835353771923695
1691406537.4002845,-0.07160580213873938,-0.35180354027999006,0.05032063685854275,-2.2772828205844813,-0.12252837814887364,1.882352326101848,0.942396786118547,0.4405848195452925,-0.017134266667749438,0.49186731924517596,0.0693208871442731,0.8923054284863583,-0.4459696439483239,0.009834306071742006
1691406537.5008535,-0.07160797897639637,-0.35180354027999067,0.05032592657208442,-2.2772808717426503,-0.12252776779731114,1.8823533797630072,0.9423916998555262,0.44058507666460844,-0.01713480674208675,0.49186659578977243,0.06932060836068947,0.8923052064793218,-0.445970153434199,0.00983331034168414
1691406537.6011064,-0.07160602959310744,-0.3518018698441354,0.05032759696784368,-2.277279201306795,-0.12252898850043614,1.8823499645659254,0.9423932257344324,0.440585637425772,-0.017134410493281398,0.4918674567764717,0.06931979344110525,0.8923046484280794,-0.4459713584829247,0.009835041627713504
1691406537.7002442,-0.07160803820064442,-0.351805210715846,0.05032397773025328,-2.2772808717426503,-0.12252644536892573,1.8823533913920452,0.9423916998555262,0.4405849771385698,-0.017134305993918388,0.49186744130270427,0.06931965773005247,0.8923049280184085,-0.4459708288413429,0.009834648382975172
1691406537.800985,-0.07160579334616114,-0.35180346154165737,0.05032592657208442,-2.2772808717426503,-0.12252644536892573,1.882348423520808,0.9423916998555262,0.44058520039327076,-0.017133693319728475,0.49186663384331486,0.06932073850565938,0.8923049120931003,-0.44597070854365267,0.009833930477026472
1691406537.9003053,-0.07160602917031166,-0.35180521071569787,0.05032397773025328,-2.2772844910203367,-0.12252705572048823,1.8823530250807683,0.9423983119974533,0.4405846429693395,-0.017134619290594226,0.4918666123178874,0.06932073566980586,0.8923049084337096,-0.4459707166740641,0.009833913795008004
1691406538.0008423,-0.07160753739088509,-0.351805210715846,0.050323951423265,-2.2772828205844813,-0.12252705572048823,1.8823549000463196,0.9423939378112554,0.44058484795282815,-0.017133767205436818,0.49186419808808257,0.06932211822563238,0.8923057531235322,-0.44596886502828853,0.009831494939107777
1691406538.1005945,-0.0716062566881875,-0.351805210715846,0.05032592657208442,-2.2772808717426503,-0.12252705572048823,1.8823517375882126,0.9423932257344324,0.44058594444925403,-0.017134485391121692,0.49186781501171595,0.06931874731291983,0.8923059005183666,-0.4459689904501304,0.009836194790971838
1691406538.2003794,-0.07160516229071028,-0.3518052107158459,0.05032397769416138,-2.2772844910203367,-0.12252705572048823,1.882353155904281,0.942396786118547,0.4405846089001975,-0.017134365620262,0.49186497126387785,0.06932169226303234,0.8923049604143563,-0.44597049539219263,0.009832489072755336
1691406538.3007815,-0.0716091709103477,-0.3518035402799889,0.05032591780308833,-2.2772808717426503,-0.12252776779731114,1.8823499639261034,0.942396786118547,0.44058465591829554,-0.017132849141411364,0.4918649477111424,0.06932170682068703,0.8923054505852297,-0.4459695109190353,0.009832555618627378
1691406538.400217,-0.0716051882743894,-0.351805210715846,0.05032592657208442,-2.2772808717426503,-0.12252705572048823,1.8823514117823057,0.942396786118547,0.4405849641132092,-0.017134397082359303,0.49186430293818617,0.06932182502462533,0.8923051404333735,-0.4459701240733969,0.00983205804456513
1691406538.5008998,-0.07160795061500635,-0.3518035315314187,0.05032592657208442,-2.2772844910203367,-0.12252644536892573,1.8823503158259065,0.9423960740417241,0.44058517198449315,-0.01713480260418125,0.4918651697197336,0.06932186814634395,0.8923052582898017,-0.44596986896044155,0.009832629581033031
1691406538.6011195,-0.07160557759432733,-0.35180186980813316,0.05032592657208442,-2.2772808717426503,-0.12252776779731114,1.8823496443043766,0.9423932257344324,0.44058494605357584,-0.01713339017433803,0.4918651942461862,0.06932105856989423,0.8923055043993519,-0.4459694773587271,0.009833764373386322
1691406538.7005262,-0.07160916289732783,-0.3518018698441354,0.05032592657208442,-2.2772808717426503,-0.12252837814909658,1.8823498461646095,0.9423953619649011,0.4405855526727994,-0.017134186349087234,0.4918668096572444,0.06932004507120793,0.8923058023468807,-0.44596901116640547,0.009835015438406388
1691406538.8008327,-0.0716050911804488,-0.35180186980813316,0.05032925867479886,-2.2772828205844813,-0.12252705572048823,1.8823491791715499,0.9423974981953699,0.4405855148570936,-0.017133042140598055,0.49186593412897706,0.06932125904400907,0.8923057942412056,-0.4459688746888534,0.009833382779206225
1691406538.900331,-0.0716097653336911,-0.3518035402439884,0.05032397772891675,-2.277279201306795,-0.12252705572048823,1.8823513767527982,0.942396786118547,0.4405843495310979,-0.01713382665026289,0.49186569218851905,0.06932115076843838,0.8923057936953736,-0.4459689005756445,0.009833021568163515
1691406539.000839,-0.07160511813296631,-0.35180186692780213,0.05032397773025328,-2.2772844910203367,-0.12252573329210281,1.8823506599864088,0.9423953619649011,0.4405851781541387,-0.017133671887143716,0.4918660497704988,0.06932055793249974,0.892305449113202,-0.4459696572333917,0.009834152629736607
1691406539.100859,-0.07160729222296121,-0.3518018698441354,0.05032592657208442,-2.2772844910203367,-0.12252573329217713,1.8823491733336437,0.9423925136576096,0.4405847742834608,-0.017135551770034993,0.4918641908477174,0.0693218947866051,0.8923052981513081,-0.44596981791083656,0.009831139652919076
1691406539.200504,-0.0716051873003535,-0.35180179110713494,0.05032592657208442,-2.277279201306795,-0.12252512294054031,1.882352326084592,0.9423909877786786,0.44058455525781026,-0.017136169045474426,0.4918681389933822,0.069320157084893,0.8923049761485502,-0.445970644507477,0.009835120733710236
1691406539.301071,-0.07160412484644726,-0.35180186984408607,0.05032592657208442,-2.2772775308709394,-0.12252837814887364,1.882350324545218,0.9423953619649011,0.44058552788034955,-0.017133756576869753,0.4918659929328414,0.06932095278249002,0.8923058102225412,-0.44596888921418726,0.00983343284341614
1691406539.400312,-0.07160628894823974,-0.3518035402799852,0.05032397773025328,-2.2772828205844813,-0.12252705572048823,1.8823492518271272,0.9423990240742762,0.4405852706678611,-0.017135482813480114,0.49186526893816346,0.06932110285268347,0.8923054246349035,-0.44596965140373374,0.009832796817008074
1691406539.5012014,-0.07160721403130654,-0.3518018435944686,0.050327597007939685,-2.2772828205844813,-0.12252644536892573,1.8823484263953174,0.9423953619649011,0.4405849444434451,-0.0171337393460266,0.49186588163036377,0.0693213030559476,0.8923054260907192,-0.4459696053511115,0.009833341988328614
1691406539.6012514,-0.07160050362024431,-0.35180353995597013,0.05032397773025328,-2.2772775308751267,-0.12252573329210281,1.8823517589065053,0.9423946498880783,0.4405847616267676,-0.017134397483561156,0.49186577261670317,0.06932106096278963,0.8923052099422987,-0.4459700954379499,0.009832435704813784
1691406539.700467,-0.07160509084364054,-0.35180354027999067,0.05032592657208442,-2.2772828205844813,-0.12252776779731114,1.88235077777848,0.942396786118547,0.44058616289493086,-0.01713366587811601,0.49186591825380926,0.06932055791684794,0.8923063787115577,-0.44596782006288005,0.00983311899275673
1691406539.801066,-0.07160713711889359,-0.35180521071584053,0.050325900265096146,-2.2772808717426503,-0.12252644536892573,1.8823494821515605,0.9423932257344324,0.44058500759756625,-0.017134613259289354,0.4918652741177951,0.06931998314161618,0.8923058479943716,-0.445968961158391,0.0098335779651622
1691406539.9003215,-0.07160245152768742,-0.351805210715846,0.05032759700789019,-2.2772808717426503,-0.12252573329210281,1.8823540852020961,0.9423925136576096,0.4405853906763141,-0.017134360542472044,0.49186531054456106,0.06932090102401335,0.8923060621949048,-0.4459684001590119,0.009833112988929443
1691406540.0002325,-0.07160341491862587,-0.35180354027999067,0.05032592657208442,-2.2772828205844813,-0.12252705572048823,1.8823538782882445,0.9423983119974533,0.4405856173511738,-0.01713259811932847,0.49186598882721383,0.06932052661282691,0.8923067418210344,-0.44596709281602503,0.009833372568601707
1691406540.1009192,-0.07160703384140665,-0.3517999210023043,0.05032592657074789,-2.277279201306795,-0.12252705572048823,1.8823510570017679,0.9423916998555262,0.440585143758913,-0.01713606277676139,0.4918682035643267,0.06931977034566299,0.8923040931171536,-0.4459724684067611,0.00983525641654537
1691406540.2003005,-0.0716061210342831,-0.3518030060758489,0.05032397773025328,-2.2772808717426503,-0.12252717419391797,1.882350795206461,0.9423925136576096,0.4405854615380733,-0.017133199966947774,0.4918653297307485,0.06932081008323422,0.8923055198749769,-0.4459694912033947,0.00983348391145553
1691406540.3012254,-0.07160519705795719,-0.3518068782355161,0.05032592657208442,-2.2772861614561917,-0.12252705572048823,1.8823506619107635,0.942396786118547,0.4405852442022821,-0.017133761501935123,0.4918672687609635,0.06932112626169527,0.8923053585806138,-0.4459697572039817,0.00983382741123855
1691406540.4003172,-0.07160817276344478,-0.351805210715846,0.050327597007939685,-2.277277531210101,-0.12252705572049649,1.882349977486394,0.9423953619649011,0.4405851344382746,-0.01713217342212857,0.49186434435139603,0.0693221672318888,0.8923059884676641,-0.4459683583187762,0.009832774454580532
1691406540.500931,-0.07160543381742521,-0.3518018698441354,0.05032592624730679,-2.2772828205844813,-0.12252837814887364,1.8823484355772093,0.9423916998555262,0.4405856872315994,-0.017135444061799152,0.49186674304222056,0.06931984857850798,0.8923055466085069,-0.44596958976256745,0.009833366247312816
1691406540.600713,-0.07160415212826338,-0.351805210715846,0.05032397773025328,-2.2772844910203367,-0.12252573329210281,1.8823512590338372,0.9423936072041591,0.4405840926868604,-0.017133149561797855,0.49186338690885995,0.06932287432561221,0.8923059255753136,-0.4459684092238166,0.009831187761237408
1691406540.7004657,-0.0716056225579869,-0.351805210715846,0.05032397773025328,-2.2772808717426503,-0.12252705572048823,1.8823491733360778,0.9423925136576096,0.4405851759896044,-0.017133551115461252,0.4918681416972354,0.0693201671378189,0.8923062415047495,-0.44596811115289753,0.009835122488786152
1691406540.8010552,-0.07160531894226708,-0.3518052106798437,0.05032230729439781,-2.2772808717426503,-0.12252573329210281,1.8823521907223733,0.9423909877787032,0.44058569734576697,-0.01713456601099137,0.49186669175309716,0.06932074455549685,0.8923054365453249,-0.44596966382667197,0.00983367847012672
1691406540.9002347,-0.07160198673094939,-0.3518018698441354,0.05032592657208442,-2.277279201306795,-0.12252776779731114,1.8823507922581506,0.942396786118547,0.4405853447213374,-0.017133736311728716,0.4918652442756138,0.06932134889810188,0.8923057897954461,-0.44596887671777113,0.009833060742320333
1691406541.0010011,-0.07160341271740658,-0.35180521071582954,0.05032063684649746,-2.2772808717426503,-0.12252705572048823,1.882351376906405,0.9423960740417241,0.4405847212902738,-0.017133469870233696,0.49186502930914305,0.0693215597210906,0.892306405328045,-0.4459676197419751,0.009832726481256257
1691406541.1013398,-0.0716072132668173,-0.3518018698441354,0.050325926572084415,-2.2772808717426503,-0.12252644536892573,1.8823498461663801,0.9423909877787032,0.4405846171090776,-0.017134222081535803,0.49186658906555647,0.06932018891440822,0.8923049627508836,-0.44597070081592993,0.009833558499516143
1691406541.200774,-0.07160603204704324,-0.35180186984013334,0.05032397773025328,-2.2772808717426503,-0.12252644536892573,1.8823498476361107,0.9423909877787032,0.440584853945573,-0.017133705425326756,0.49186884417684607,0.06932020829496645,0.8923056839617325,-0.44596920373049415,0.009835873907093272
1691406541.3011804,-0.07160734659765157,-0.35180521071582954,0.05032592657208442,-2.2772808717426503,-0.12252776779731114,1.8823484220128164,0.9423932257344324,0.4405850586224223,-0.01713426447866323,0.4918636593708658,0.0693206661170406,0.8923060584187256,-0.4459684680421912,0.009832032873668604
1691406541.400344,-0.07160724249277571,-0.35180354027999067,0.05032926744379495,-2.277279201306795,-0.12252644536892573,1.8823533913743227,0.942396786118547,0.4405850578764028,-0.01713502221168716,0.49186659887884293,0.0693200377815564,0.8923046274155143,-0.44597140525051143,0.009833104988136335
1691406541.5010214,-0.07160516099293807,-0.3518034615429853,0.05032592657208442,-2.2772792013444794,-0.12252644536892573,1.8823501942291145,0.9423974981953699,0.44058579092110134,-0.017132774763759438,0.49186762648207294,0.06932062659346722,0.8923069450524393,-0.44596661390137526,0.009835945567852776
1691406541.6009817,-0.07160562445442523,-0.35180354027999067,0.05032805743813514,-2.2772844910203367,-0.12252705572048823,1.8823506992125467,0.9423974981953699,0.44058561963278114,-0.01713453864631151,0.4918669806951387,0.06931950601978105,0.8923054549752765,-0.4459697811733845,0.009835414922715701
1691406541.7004519,-0.07160341207985078,-0.351805210715846,0.05032230729439802,-2.277279201306795,-0.12252776779731114,1.8823491355470945,0.9423916998555262,0.4405843503021353,-0.017132947177242258,0.4918656608188615,0.06932172117691408,0.8923050827064788,-0.4459702273676409,0.009833343831518997
1691406541.8010435,-0.07160706696811499,-0.3518052106798437,0.05032230729306149,-2.2772828205844795,-0.12252705572048823,1.882349846218467,0.9423960739878889,0.4405855832918931,-0.017133572565989692,0.4918675282978209,0.06932013659567554,0.8923065629006007,-0.44596747744431353,0.009834913768246483
1691406541.9002693,-0.07160420972231094,-0.3518018698441354,0.05032397773025328,-2.2772808717426503,-0.12252644536892573,1.8823502037397397,0.9423916998555262,0.44058457168824855,-0.017133124268599455,0.4918649017606681,0.06932243987646731,0.8923057249758442,-0.44596885028168737,0.009832450525518902
1691406542.0009367,-0.07160579246806227,-0.35180354027999067,0.05032230729439802,-2.2772808717426503,-0.12252776779738546,1.8823500037938588,0.9423974981953699,0.440585018017093,-0.01713133552851009,0.49186736120745594,0.06932123456393524,0.8923072924951273,-0.4459658455473282,0.009834978586849534
1691406542.1009338,-0.07160535490036357,-0.3518052107158454,0.05032592657208443,-2.277282820584487,-0.12252644536892573,1.8823491360257036,0.9423953619649011,0.44058485227936206,-0.01713548172257205,0.4918658910434559,0.0693210790403261,0.8923042659845344,-0.44597196610448736,0.009833125412819823
1691406542.200436,-0.0716050834819979,-0.35180354027999067,0.05032374096735876,-2.2772828120812125,-0.12252776779731114,1.8823544512271355,0.9423925136576096,0.4405842813148645,-0.017132737036527162,0.49186525018816213,0.06932183002349919,0.8923068514974135,-0.44596667812880963,0.009833038783651242
1691406542.3012002,-0.07160365135674535,-0.3518035402439884,0.05032397773025328,-2.2772775308709567,-0.12252705572048823,1.882349847637899,0.9423960740417241,0.4405848901524958,-0.01713260254172987,0.4918667380905415,0.06932035112815733,0.8923054812203981,-0.4459696103685567,0.009834822378694593
1691406542.4003284,-0.07160580406332734,-0.35180351403432225,0.05032397773025328,-2.2772808717426503,-0.12252705572048823,1.8823524757724543,0.942396786118547,0.44058524701752183,-0.017132315688223487,0.49186662631387745,0.0693215525109108,0.8923064784103021,-0.44596744231108637,0.009834192543878548
1691406542.5007174,-0.07160776755757395,-0.3518018698441354,0.05032592657208442,-2.2772808717426503,-0.12252577278324697,1.88234996390395,0.9423983119974533,0.44058566172095354,-0.017133532332802924,0.4918643914037641,0.06932201018313518,0.8923053418397165,-0.44596968433615175,0.009832419925387541
1691406542.6012514,-0.07160516131682466,-0.35180186980813316,0.05032592657208442,-2.277279201306812,-0.12252705572048854,1.882351013179203,0.9423953619649011,0.4405848072602761,-0.01713611565567837,0.4918658709209634,0.0693208253657743,0.8923040420900167,-0.44597246004628993,0.009832828722495052
1691406542.700333,-0.07160510946158545,-0.35180354027999067,0.05032592657208442,-2.2772808689082273,-0.12252705572048823,1.8823530790216632,0.942396786118547,0.44058519996585127,-0.0171328934852751,0.4918633389473075,0.06932331979949913,0.8923067632891057,-0.44596666877901125,0.00983096427862823
1691406542.800781,-0.07160873059452813,-0.3517999210023043,0.05032592657208442,-2.2772828205844813,-0.12252705572048823,1.882353496029053,0.9423939378112554,0.4405854889640504,-0.017136450074744337,0.4918675613016042,0.06931922990782531,0.8923043515284703,-0.4459720502116191,0.009834583793287048
1691406542.9003863,-0.07160602912798869,-0.3518018698441354,0.05032397773025329,-2.2772828205846363,-0.12252705572048823,1.8823496566159197,0.9423916998555262,0.4405850784849812,-0.01713607667234441,0.49186513815764066,0.06932115485602433,0.8923050371854689,-0.44597043758850924,0.009831932667563362
1691406543.0008879,-0.07160519054639729,-0.351805210715846,0.05032592657208443,-2.277279201302907,-0.12252644536892573,1.882348426532896,0.9423946498880783,0.44058531895461256,-0.0171353177099153,0.49186738187354634,0.06932053331383414,0.892304194836849,-0.4459721692527069,0.009834215255092118
1691406543.100891,-0.07160372742732717,-0.3518034615429908,0.05032926744379495,-2.2772808717426503,-0.12252776779731114,1.8823484226636378,0.9423909877787032,0.44058509042359967,-0.01713433188203719,0.491866555709065,0.06932078483693992,0.8923046803036798,-0.44597117579554324,0.009833445849701835
1691406543.2005026,-0.07160625575259234,-0.3518018695201149,0.050325844728120885,-2.277279201306795,-0.12252644538698296,1.882350199864517,0.9423925136576096,0.44058449194664645,-0.017133563096128374,0.4918664732389317,0.06932139053428876,0.8923056194569544,-0.44596920528000783,0.009833323032001547
1691406543.300638,-0.07160508348378523,-0.351805210715846,0.050323951423265005,-2.2772844910203367,-0.12252705572048833,1.8823491735128697,0.9423953619649011,0.4405855384002505,-0.01713430064658798,0.49186599636138184,0.06932054807200722,0.8923055144464441,-0.4459695468694036,0.00983329896637692
1691406543.400175,-0.07160579560757346,-0.35180354027997424,0.05032592657163892,-2.277277530870993,-0.12252705572048826,1.8823499639577936,0.9423946498880783,0.44058479004501555,-0.017135152537831395,0.4918651325028119,0.06932037607695099,0.892304725460388,-0.4459711613538249,0.009832884741135195
1691406543.5005362,-0.0716070572199077,-0.3518018698441354,0.05032592657208442,-2.2772828205844813,-0.12252644536892573,1.8823533740936549,0.9423909877787032,0.4405847960461463,-0.017133516385166386,0.4918650820226287,0.06932109222496743,0.8923050484522208,-0.44597039898980806,0.009833102475245444
1691406543.6006205,-0.07160797798022245,-0.3518035315314352,0.050325926560050124,-2.2772808717426503,-0.12252837814887364,1.8823492523103147,0.9423974981953699,0.44058447361042297,-0.01713443896753635,0.4918648684589249,0.06932171343658085,0.8923051683671442,-0.44597009158130996,0.009831783483014807
1691406543.7003014,-0.07160747633316315,-0.35180354027999067,0.05032592657208442,-2.2772808717426503,-0.12252573329210281,1.8823506614266654,0.9423960735572073,0.44058514819149835,-0.017135237822404274,0.49186629154519024,0.06932023112910524,0.892304332496104,-0.44597197188079324,0.009832805380290927
1691406543.8009934,-0.07160436756360442,-0.35180184358646804,0.05032397773025328,-2.277279201306795,-0.12252573329210556,1.882350232997543,0.9423946498880783,0.44058496587180845,-0.01713436953697488,0.49186590701614374,0.06932064106399588,0.8923048477535096,-0.4459708676322825,0.009833240634294077
1691406543.9002447,-0.0716070582111684,-0.3518035402799413,0.05032592657208442,-2.2772828205844813,-0.12252812198135588,1.8823530662886534,0.9423983119974533,0.4405848878212894,-0.01713715548639646,0.49186656260957706,0.06932075616383185,0.8923049286690329,-0.4459707001221489,0.009832683783540927
1691406544.0010235,-0.07160562240012733,-0.35180521070384524,0.05032230729424952,-2.277279201306795,-0.12252705588300322,1.882351372529805,0.942396786118547,0.4405851839245239,-0.017133610600722403,0.49186512717200936,0.06932198045544674,0.8923050900281169,-0.44597018718833065,0.009832673840529488
1691406544.1008928,-0.07160508207478399,-0.35180521060783915,0.05032397773025328,-2.2772861614561917,-0.12252644536892573,1.8823530643785396,0.9423953619649011,0.4405845241273908,-0.017133020309273495,0.49186649855223136,0.06932136822341799,0.8923068484496983,-0.44596674985711504,0.009833317816574066
1691406544.200431,-0.07160534524876656,-0.35180521039182544,0.05032592657208442,-2.277279201306795,-0.12252644536892573,1.8823494888262702,0.9423974981953699,0.4405848408177231,-0.01713439331523778,0.4918658403954736,0.06932147256411483,0.8923056941062683,-0.44596905165973943,0.009832937952933518
1691406544.3009446,-0.07160420084843766,-0.3517989760502988,0.05032230729439802,-2.277279201306795,-0.12252644536892573,1.8823494816508717,0.9423932257344324,0.4405856093383789,-0.01713363573783783,0.49186755865094856,0.06932175281058427,0.8923057452673908,-0.4459688401935602,0.009835910048650217
1691406544.4003863,-0.07160516099341475,-0.35180186984413,0.05032592657208442,-2.2772828205844813,-0.12252644536892573,1.882349605092424,0.9423902757018804,0.4405845930016408,-0.01713263664577022,0.49186632446995426,0.06932091764813138,0.8923065433537569,-0.44596742453451843,0.009833581165549613
1691406544.5008388,-0.07160349932477923,-0.35180133560799154,0.05032063685854275,-2.277279201306795,-0.12252776779731114,1.8823494923129274,0.9423960740417241,0.440585368279777,-0.017133571632363637,0.49186678647684984,0.06932032795291461,0.8923051288918781,-0.44597032301317774,0.00983463661102811
1691406544.6011865,-0.07160795249192187,-0.351805210715846,0.05032397773025328,-2.2772808717426503,-0.12252705572048823,1.8823495265487957,0.9423953619649011,0.4405851006871132,-0.017132859136864083,0.491865038613703,0.0693219099783105,0.8923058693500827,-0.4459686522088654,0.009832068315472162
1691406544.7003222,-0.0716072227900891,-0.35180186984413525,0.05032326744156971,-2.2772828205844813,-0.12252776779731114,1.8823506993977575,0.9423909877787032,0.44058552841404025,-0.017136902957132133,0.49186607897379137,0.06932038849315691,0.8923048282138707,-0.44597094221331984,0.009833411754636912
1691406544.8009493,-0.07160446688689942,-0.3518018698441354,0.05032592657208442,-2.2772828205844813,-0.12252644536892848,1.8823498466548838,0.9423932257344324,0.4405853024079937,-0.017133329775028155,0.4918691675434689,0.06931928632596895,0.8923053120510059,-0.44597005000704787,0.009837739858643493
1691406544.900425,-0.07160516110400235,-0.3518035402799905,0.05032230729439802,-2.2772844910203385,-0.12252776779731114,1.8823540853808984,0.9423916998555262,0.44058496376166667,-0.017134293832151294,0.491864290889893,0.06932125819908651,0.8923049250628714,-0.44597064851165785,0.009831812464153723
1691406545.0003507,-0.07160508208325826,-0.35180520974378426,0.05032230729439802,-2.2772828205844813,-0.12252705572048823,1.882351602402641,0.942396786118547,0.4405844176666249,-0.01713264944090353,0.49186732529282423,0.06932073121748972,0.8923057685803685,-0.4459689760322268,0.009834835963932198
1691406545.101129,-0.0716079819822412,-0.3518018698441354,0.050327597007939685,-2.2772828205844813,-0.12252705572048823,1.8823530251027003,0.9423974981953699,0.4405851739818898,-0.017134588436889822,0.4918651556535688,0.06932131498461656,0.8923049364588378,-0.4459706036156017,0.009832414287900017
1691406545.2005177,-0.07160579344236347,-0.35180354027954625,0.05032397773025328,-2.2772828205844813,-0.12252776779731389,1.8823526676702291,0.942396786118547,0.44058505514569485,-0.017135198842094124,0.49186812630883536,0.06931995113678423,0.8923044576974928,-0.4459717194611681,0.009834865958742047
1691406545.3008409,-0.07160344090085546,-0.35180354027999067,0.050327597007939685,-2.277282820584476,-0.12252644585647071,1.882349846191225,0.9423974981953699,0.4405852071226242,-0.017131241157900417,0.49186657341176987,0.06932113640276313,0.8923070341927269,-0.4459664052383623,0.009833726495182757
1691406545.4002624,-0.07160734790929806,-0.35180353736380554,0.05032397675592038,-2.277279201306795,-0.12253157693147658,1.8823485578389285,0.9423932257344324,0.4405848333558471,-0.0171345945841542,0.4918651768524729,0.06932119875852089,0.8923056123705708,-0.4459692476563133,0.009833396133800168
1691406545.5010347,-0.07160364938422283,-0.35180354017198384,0.05032592657208442,-2.2772808717426503,-0.12252837814887364,1.8823499918457518,0.9423925136576096,0.4405849826812665,-0.017135679947156958,0.4918665888441897,0.06932295447775373,0.8923053341812839,-0.44596951817371766,0.009833993797271845
1691406545.6007338,-0.07160516109999646,-0.3518018698441354,0.050327597007939685,-2.277279201306795,-0.12252705572048823,1.8823549029334976,0.9423946498880783,0.4405852392436924,-0.017133524652019796,0.4918651659290806,0.06932189571283884,0.8923062537609923,-0.4459678710052885,0.009832716044532184
1691406545.7009401,-0.07160721295018473,-0.351801161211131,0.05032396896125712,-2.2772808717426503,-0.12252776779731114,1.8823491866329602,0.9423909877787032,0.44058532792333216,-0.01713295952565414,0.49186672676787646,0.06932041488771233,0.8923062813044235,-0.44596801276690473,0.009834226619534283
1691406545.8009174,-0.07160373998628689,-0.3518018698441354,0.05032592624730679,-2.277282823636937,-0.12252644536892573,1.8823491384668256,0.9423916998555262,0.4405860368943662,-0.01713300677571272,0.4918669018691181,0.06932059267284199,0.8923055660997157,-0.4459693937412964,0.009835241988513025
1691406545.9003217,-0.07160511238319955,-0.351803304068991,0.05032592657208442,-2.2772808717426503,-0.12252705572048823,1.8823484220732423,0.942396786118547,0.4405853261176926,-0.017135696218697944,0.491864216357236,0.06932224215119105,0.8923044408589124,-0.4459714798116045,0.009831111902677462
1691406546.0011187,-0.07160792355028447,-0.35180521071184573,0.05032397773025328,-2.2772808717426503,-0.12252573329210373,1.8823517296765018,0.9423939378112554,0.4405851193988908,-0.01713522361195268,0.4918666607296388,0.06932044443487871,0.8923054489419698,-0.4459696898124089,0.009833490755802195
1691406546.1010091,-0.07160341163654763,-0.3518018698441354,0.050327597007939685,-2.277279201306795,-0.12252705572048823,1.8823498854171425,0.9423932257344324,0.4405848427195341,-0.017134248784235057,0.49186568443175405,0.0693213535212327,0.8923057363073517,-0.44596899547261815,0.009832495925413312
1691406546.2004309,-0.07160724022205668,-0.35179992099830404,0.05032592657208381,-2.2772808727601355,-0.12252705572048823,1.8823492566709648,0.9423909877787032,0.44058440217104555,-0.017131941332450912,0.4918668970813147,0.06932119635989177,0.8923067451749314,-0.44596697161149573,0.00983384371569376
1691406546.3012357,-0.07160727103687421,-0.3518018698441354,0.05032397773025328,-2.2772808717426676,-0.12252644536892573,1.8823485399164621,0.9423895636250574,0.44058517754254817,-0.017133584449599483,0.4918651037826119,0.06932167367989896,0.8923055717321019,-0.44596927788386387,0.0098323648126631
1691406546.400425,-0.07160723972482771,-0.35180354027999067,0.05032397773025328,-2.2772828205844813,-0.12252573329210373,1.8823556111368196,0.9423990240742762,0.4405845948279496,-0.017134393722407194,0.49186496157178883,0.06932171309493175,0.8923046263213925,-0.4459711607150578,0.009832484400614414
1691406546.50097,-0.07160705820595348,-0.351804502082847,0.05032592657208442,-2.2772808717426485,-0.12252585176553255,1.882350217358086,0.942396786118547,0.4405844700841126,-0.017134181656728788,0.4918633340301719,0.06932181175541222,0.8923050597708778,-0.44597033199911035,0.009830040632707608
1691406546.6009383,-0.07160774120565477,-0.35180354027999067,0.050327518086974846,-2.2772808717426503,-0.12252644585647071,1.8823499653575322,0.9423932257344323,0.4405855260398733,-0.017134290985148418,0.49186598686944144,0.06932058149618205,0.8923058347545496,-0.44596890299039255,0.009833199355416801
1691406546.7002604,-0.07160582754503236,-0.3518018698428018,0.050327594048706084,-2.2772808717426503,-0.12252644536892573,1.8823500089627523,0.9423932257342109,0.44058451944801935,-0.017135177507088588,0.4918665315512497,0.06932095153527497,0.8923042910728718,-0.445971927425714,0.009833501887801658
1691406546.8009257,-0.07160703106883122,-0.35180186980813255,0.05032903068090043,-2.2772808717426503,-0.12252705572048823,1.8823503563631885,0.9423925136576096,0.4405849373193985,-0.01713354820883392,0.4918651882326895,0.06932080272356991,0.8923053739235396,-0.4459697813389321,0.009833621379590957
1691406546.9003992,-0.07160364839785743,-0.35180688115170067,0.05032397773025328,-2.27727920232428,-0.12252573329410917,1.882353064332839,0.9423983119974533,0.44058536856455494,-0.01713362514519189,0.49186736225869243,0.06932118356810163,0.8923055060519125,-0.4459694393889201,0.009834455210648319
1691406547.0007467,-0.07160175029684523,-0.35180521039138096,0.05032397773025328,-2.2772828205844813,-0.12252705572048823,1.882349293062895,0.9423960740417241,0.4405861180629406,-0.017132283491105817,0.49186788196578796,0.06931971949944947,0.8923064613517959,-0.4459676921904814,0.009837328938776686
1691406547.1015184,-0.07160711892719075,-0.35180354027999067,0.05032592657208443,-2.2772775308709394,-0.12252717468146294,1.8823530383222313,0.9423953619649011,0.44058460885978795,-0.017132041507416942,0.4918647677071231,0.06932171881174008,0.8923062268234031,-0.44596797025841345,0.009831906059270375
1691406547.2002401,-0.07160554553207232,-0.351805210715846,0.05032230729439802,-2.2772792013068464,-0.12252705572048915,1.8823505905455764,0.9423983119974533,0.44058500118049754,-0.017134538369175334,0.49186594298941083,0.06932088756239142,0.8923059618124228,-0.44596859767481783,0.009833359015409278
1691406547.3009725,-0.07160389972053129,-0.3518018698441354,0.050321597005714445,-2.2772845184924364,-0.12252705572048823,1.882348776035153,0.9423983119974533,0.44058512666408794,-0.01713442433581067,0.4918681467908862,0.06932013156479512,0.892305108904222,-0.4459703825975408,0.00983513238686671
1691406547.4003015,-0.07160246352173882,-0.35180354026794053,0.050327597007939685,-2.2772828205844813,-0.12252776779731114,1.8823505469583415,0.9423946498880783,0.4405845706320632,-0.017135486186504234,0.4918665835362319,0.06932082229345127,0.8923043043956554,-0.4459719161462167,0.009833715595699875
1691406547.5010023,-0.07160174134325352,-0.3518035402786408,0.05032397773025325,-2.2772808717426503,-0.12252705572048825,1.8823537389526899,0.9423960740417241,0.4405845866377009,-0.017134284811428167,0.49186399994982083,0.06932203863388718,0.8923047077697351,-0.4459709945909039,0.009830332405848236
1691406547.6011555,-0.07160516102781815,-0.35180116121112,0.0503259265720842,-2.277281426546866,-0.12252705572249459,1.8823485790121477,0.9423939378112554,0.4405854420731279,-0.017134028952774168,0.4918659272348793,0.06932049160952317,0.8923055415249964,-0.44596951188544276,0.009832826422594112
1691406547.7006657,-0.07160871048351171,-0.35180354027999067,0.05032397773025328,-2.277279201306795,-0.12252644536892573,1.8823495993884325,0.9423953619649011,0.4405854619451595,-0.017133501674722853,0.4918659127472098,0.06932165295141691,0.8923059320835528,-0.44596853953295434,0.009833297891815408
1691406547.8011088,-0.07160510848603104,-0.35180354027999067,0.05032397773025328,-2.277279201306795,-0.12252573329210281,1.8823502126959228,0.9423902757018804,0.44058450001478355,-0.017135689448670586,0.4918649366781095,0.06932123905204958,0.8923039904211385,-0.44597251786132475,0.009831978805500338
1691406547.900448,-0.07160534514069924,-0.3518052107158458,0.05032397773025322,-2.2772828196396735,-0.12252705572048823,1.882350659966764,0.9423916998555262,0.4405854064339967,-0.017134692335881566,0.4918646412474059,0.06932089220107042,0.8923052273291908,-0.44597005613392077,0.00983383024849758
1691406548.0011916,-0.07160490238138395,-0.3517998918404523,0.050327597007939685,-2.2772808717426503,-0.12252705572048823,1.8823502124650326,0.9423953619649011,0.44058562369504634,-0.0171318429262523,0.49186841940802223,0.06931987163751896,0.8923063374120616,-0.4459679210977871,0.009837121639383741
1691406548.1009831,-0.07160703416029181,-0.35180354027999067,0.05032397773025328,-2.277279201306795,-0.12252573329210281,1.882352077178697,0.9423946498880783,0.4405850333260084,-0.017132610649771667,0.49186428812207805,0.06932183322453717,0.8923067446917051,-0.4459669133330054,0.009832040902746154
1691406548.200326,-0.07160745890700874,-0.35180521071584053,0.05032592657208442,-2.2772775308709394,-0.1225270557746599,1.8823535441590855,0.9423925136576096,0.4405852508198776,-0.017135167959449228,0.4918667516651798,0.06931992902380169,0.8923044867325649,-0.44597168271219223,0.009834053890681961
1691406548.30112,-0.071604201169686,-0.351805210715846,0.05032397773025328,-2.2772828205844813,-0.12252644536892573,1.8823498638410125,0.9423960740417241,0.44058545861362786,-0.01713433307093904,0.49186593783843846,0.06932073001158282,0.8923063013979633,-0.4459679538252174,0.009832854982002037
1691406548.4004722,-0.0716034126212733,-0.35180685490603464,0.05032063684651395,-2.2772808707978425,-0.12252644536892573,1.8823549421434413,0.9423925136576096,0.4405843417680722,-0.017133369430847645,0.4918656730844344,0.0693211849336684,0.8923053856647233,-0.4459697109508526,0.009833053825466545
1691406548.5010128,-0.07160605847248801,-0.35180186984413353,0.05032592657208442,-2.2772775308709394,-0.12252705572048823,1.8823484367257746,0.942396786118547,0.44058511459813154,-0.017133621041486094,0.4918665759558539,0.0693214541149019,0.89230539401872,-0.4459696371261321,0.009833746289109005
1691406548.6010644,-0.07160413210120463,-0.35180354027999067,0.05032222837343318,-2.277279201306795,-0.12252644536892573,1.8823500046015869,0.9423939378112554,0.44058510208996127,-0.017134500862422616,0.4918666320088265,0.06932001283575849,0.8923048612938116,-0.4459709365219618,0.009833316307646625
1691406548.7005699,-0.07160508219135739,-0.351805210715846,0.05032397773025328,-2.277279201306795,-0.12252705572048823,1.882351025011581,0.9423974981953699,0.4405850497271944,-0.0171352182995184,0.49186601117359896,0.06932039940711446,0.8923047323765134,-0.4459711269739536,0.009833651920757606
1691406548.8009088,-0.07160721687545527,-0.3518018698441354,0.05032397773025328,-2.277279201306795,-0.12252705572048823,1.8823516057722918,0.9423960740417241,0.44058502344759076,-0.017134294698877586,0.49186748439863753,0.06932012483307548,0.8923047323554117,-0.44597113681681855,0.009835142885504735
1691406548.90031,-0.07160518763998701,-0.3518052009952287,0.05032184686420256,-2.2772828205844813,-0.12252705572048823,1.8823491345720875,0.9423899281405739,0.4405853732367654,-0.017131091934688904,0.4918651457949441,0.06932175159120944,0.8923059570186194,-0.4459684776067713,0.00983314835194705
1691406549.0012832,-0.07160628883997108,-0.35180353725579866,0.050323977730247785,-2.2772808717426503,-0.12252776780333022,1.8823523537013576,0.9423974981953699,0.44058550447342176,-0.017136618028788977,0.4918660382481195,0.06932047134795478,0.8923050088818782,-0.44597057164943454,0.009833239501058577
1691406549.1007586,-0.07160509506172559,-0.3518028316469917,0.05032397762199407,-2.277279201306795,-0.122527055720513,1.8823499639199002,0.9423909877787032,0.440585487757203,-0.01713356884008064,0.49186425769225356,0.06932207703847139,0.8923058710505684,-0.44596863564817646,0.009831487266053238
1691406549.2003217,-0.07160755507186232,-0.3518052068275991,0.050322307295729056,-2.2772828205844813,-0.12252776779731114,1.8823524699853775,0.9423983119974533,0.44058471502371693,-0.01713223848305275,0.49186659056430126,0.06932130897131113,0.8923070689894574,-0.44596630104213275,0.00983407793061757
1691406549.301161,-0.07160554254135532,-0.35180521071540155,0.05032592652396922,-2.2772808717552118,-0.12252644536892573,1.8823526710600609,0.9423916998555262,0.4405847348441664,-0.017133472257097764,0.49186409641740697,0.0693217938643029,0.8923052965656656,-0.44596984353569863,0.009830832774449606
1691406549.4004793,-0.07160925044325604,-0.35180353995597013,0.05032397773025328,-2.277279201306795,-0.12252705572048823,1.8823498476359055,0.9423960740417241,0.44058448758179447,-0.01713303613803647,0.49186331627139446,0.06932295722709161,0.8923055683345269,-0.4459691258736993,0.009830518192659864
1691406549.501143,-0.07160801125218601,-0.35180353930792896,0.050327597007939685,-2.277279201306795,-0.12252644536892573,1.882348541704994,0.942396786118547,0.4405852109501441,-0.01713496432258939,0.49186519355642166,0.06932123373235098,0.8923057302757375,-0.4459690274235564,0.009832438649435596
1691406549.6012666,-0.07160737713877169,-0.351805210715846,0.05032592657208442,-2.2772808717426503,-0.12252705572048823,1.8823533784550566,0.9423946498880045,0.44058420679434507,-0.017132249023975133,0.49186495685463943,0.06932215863102247,0.8923058594156671,-0.44596860934306193,0.00983316102881627
1691406549.700324,-0.0716062527948435,-0.3518035402799852,0.05032592657208442,-2.277280871742645,-0.12252644536892573,1.8823492654157743,0.9423902757018804,0.4405846374565145,-0.01713275616485241,0.4918658593812679,0.06932146788881832,0.8923057835828715,-0.4459688386277884,0.009834513067702473
1691406549.8011768,-0.07160703428053054,-0.351803084816849,0.05032063685854275,-2.2772775308709394,-0.12252705572115702,1.8823499043064036,0.9423932257344324,0.4405858171095176,-0.017133473042991672,0.49186767852901714,0.06931937617380914,0.8923051731936686,-0.4459703547015703,0.009835888675989637
1691406549.9002934,-0.07160792419988415,-0.3518035402799905,0.050327597007939685,-2.2772808717426503,-0.12252512294054857,1.882353064539979,0.9423916998555262,0.4405841680523041,-0.017135534021114753,0.49186559040439237,0.06932193093706042,0.8923044184056005,-0.44597153772651316,0.009832716961730934
1691406550.0008433,-0.0716092757772335,-0.35180354027999067,0.05032397773025328,-2.2772808717426503,-0.12252705572048823,1.8823509101639049,0.942396786118547,0.4405851302060131,-0.01713529411615825,0.49186608223631545,0.0693207893192822,0.8923044989491895,-0.4459715193443606,0.009834289850830166
1691406550.1009457,-0.07160413069424679,-0.3518035402786518,0.05032397773025328,-2.277284492037822,-0.12252705572048823,1.882351372204871,0.9423925136576096,0.44058444164933197,-0.017131879018011983,0.4918656938573466,0.06932135350765464,0.8923060806793353,-0.4459682858599072,0.009833429601435123
1691406550.2004352,-0.0716093986872262,-0.35180354027999067,0.05032230729439802,-2.2772808717426503,-0.12252644536892573,1.8823509063408668,0.9423960740417241,0.44058459058039845,-0.01713450805111584,0.4918649787819217,0.06932170283460154,0.8923047043311794,-0.4459710056426724,0.009832510901151099
1691406550.300989,-0.07160723927979325,-0.35180354027599026,0.05032592657208442,-2.2772828205844813,-0.1225270557265074,1.8823510132389953,0.9423967861185462,0.440585491981377,-0.017133469482928144,0.4918642582212269,0.06932209215918686,0.8923064214677842,-0.4459675334681652,0.009831420973146928
1691406550.4005246,-0.07160579270150666,-0.3518018697001263,0.050327597007939685,-2.2772775308709394,-0.12252776779731114,1.882351738553517,0.9423939378112554,0.4405846862280719,-0.017134366713706183,0.49186502890519007,0.0693215280953039,0.8923048139981955,-0.44597080648429055,0.009832823700710557
1691406550.5012877,-0.07160916287461164,-0.3518068811515531,0.05032397773025328,-2.2772847382692336,-0.12252837814887364,1.8823523135046367,0.9423925136576096,0.4405849495156821,-0.017135483374340614,0.49186743503327673,0.06932028510426738,0.8923048849072681,-0.4459708141700428,0.00983480310932646
1691406550.6010566,-0.07160349091793032,-0.351803304068991,0.05032757070095141,-2.2772808717426503,-0.12252776779731114,1.8823533933121916,0.942396786118547,0.4405856287596216,-0.01713531693627959,0.4918650076028205,0.06932155586135905,0.8923044106808018,-0.4459716312149381,0.009831822009926133
1691406550.700544,-0.07160745080004234,-0.3518018698441354,0.05032592657208442,-2.2772808717428052,-0.12253025450309117,1.8823540994148216,0.9423946498880783,0.4405857411383415,-0.017134275803723772,0.49186556519731345,0.06931989590244055,0.8923052969269318,-0.4459700566034591,0.009834516832181743
1691406550.8013086,-0.07160420388012512,-0.3517998947566377,0.05032230729439802,-2.2772808717426503,-0.12252644536892573,1.8823552517383504,0.9423953619649011,0.4405846800584844,-0.017134286242202628,0.49186657989130167,0.06932041740789015,0.8923050215476589,-0.4459705421805773,0.009833806912369649
1691406550.9003124,-0.07160610815277352,-0.3518018698441354,0.05032592657208442,-2.2772828205844813,-0.12252451258897781,1.8823501942641505,0.9423925136576096,0.44058599007980753,-0.017133129392525953,0.4918663079241925,0.0693196784285822,0.8923055397138431,-0.445969591531818,0.00983511095457281
1691406551.0010135,-0.07160342186325985,-0.35180300607984916,0.050327597007939685,-2.2772808717426503,-0.12252644536892573,1.8823533784530875,0.9423916998555262,0.4405854951479104,-0.01713447579970457,0.49186431104162803,0.06932223480938784,0.8923049702859405,-0.44597040562430745,0.009831839671682488
1691406551.1009243,-0.07160481924143566,-0.3518035402759898,0.05032592657208442,-2.2772775308709394,-0.12252644536892573,1.8823498597873727,0.942396786118547,0.4405840740069876,-0.01713427270197698,0.49186492231837653,0.06932171095302161,0.8923046752778535,-0.4459710610060114,0.009832579163303597
1691406551.2004464,-0.07160721304507946,-0.3517997439451384,0.05032397773025328,-2.277279201306795,-0.12252644536959452,1.882353417539367,0.9423946498880783,0.4405854078472733,-0.01713335138554932,0.4918667785348922,0.06932035813023776,0.8923064106841742,-0.44596775594971955,0.009834533735406869
1691406551.3011684,-0.0716070338877737,-0.35180520747559085,0.050325917767001925,-2.2772861614561917,-0.12252705718312316,1.8823501980883366,0.942396786118547,0.4405854812568908,-0.017133541128735674,0.4918677873763835,0.06931930336251212,0.8923061699356389,-0.44596835313707295,0.009836730978009151
1691406551.400487,-0.07160534548282056,-0.3518018695161127,0.05032397773025145,-2.277280872760187,-0.12252776779731114,1.8823509059640202,0.9423960740417241,0.44058496408809283,-0.017133077262412,0.49186567239484286,0.06932156983094681,0.8923064710391725,-0.445967469677807,0.009833498205927172
1691406551.5008194,-0.07160579235930803,-0.35180353930792896,0.05032592657074789,-2.277279201306795,-0.12252776779731114,1.8823510311269098,0.9423925136576096,0.4405856041832732,-0.01713361482899553,0.4918656423405152,0.06932109470422365,0.8923064078939105,-0.44596768542372967,0.009832793004819535
1691406551.6009917,-0.07160802856176297,-0.35180518447003123,0.05032592657208442,-2.2772808717426503,-0.12252705572048823,1.8823539697006009,0.9423953619589195,0.44058590479907467,-0.01713270065148713,0.491865070673167,0.06932178982407676,0.892305460174727,-0.44596947212930504,0.009832859536489174
1691406551.7002623,-0.07160511730714257,-0.35180354027999067,0.05032592657208442,-2.2772808717426503,-0.12252644536892573,1.8823526792972773,0.942396786118547,0.44058545283177786,-0.017135492585514903,0.49186537567890865,0.06932088964688168,0.8923049097843548,-0.4459706973510839,0.00983358212896148
1691406551.8008187,-0.07160651991308885,-0.3518018698441354,0.05032397773025328,-2.2772808717426503,-0.12252705572048823,1.8823503163086508,0.9423974981953699,0.4405847248315384,-0.017135424803969054,0.4918667089746079,0.06932020885405038,0.892305413848673,-0.44596978384510744,0.009834071279353044
1691406551.9003036,-0.07160558064547966,-0.351805210715846,0.05032374096735876,-2.277279201306795,-0.12252776779731114,1.8823491340878178,0.9423953619649011,0.440585441225342,-0.017134599174544633,0.4918634652341912,0.06932220501373318,0.8923053420766472,-0.4459696695676583,0.009831694626310455
1691406552.000855,-0.07160556881984802,-0.35180354027999067,0.05032040009563173,-2.2772775308709567,-0.12252644536892573,1.882349186433341,0.9423925136576096,0.4405841417231189,-0.017133408723131797,0.4918649477442777,0.06932163724685506,0.8923054358626994,-0.445969547248806,0.009832734410551033
1691406552.1013353,-0.07160509182737866,-0.3518018698441354,0.05032397773025328,-2.277279201306795,-0.12252705572048823,1.882351263597419,0.9423916998555262,0.440585281876586,-0.01713617482228659,0.49186739757049136,0.06931972835356609,0.8923049639733109,-0.4459707680263867,0.00983364609547567
1691406552.2005143,-0.07160351980309167,-0.351805210715846,0.050327597007939685,-2.2772808717426503,-0.12252644536892573,1.88235235227272,0.9423909877787032,0.4405852075528906,-0.017133654143792556,0.49186513244924746,0.06932107250615634,0.8923058580962974,-0.4459688014893147,0.009832223136748459
1691406552.3006687,-0.07160604081424338,-0.35179992100230423,0.05032230729439802,-2.2772828205844813,-0.12252705572048823,1.8823498519785864,0.9423895636250574,0.44058508800011914,-0.01713338743033392,0.49186525594623653,0.0693208181389546,0.8923061637406586,-0.4459681870535223,0.009834147607668299
1691406552.4003108,-0.07160254015188769,-0.3518035402799905,0.05032592657208442,-2.2772808717426503,-0.12252644536892573,1.882350195179242,0.9423939378112554,0.4405847808780459,-0.01713644536408355,0.4918637415293386,0.06932183289164333,0.8923049294687996,-0.4459705812449526,0.009830411703620718
1691406552.5013335,-0.07160721688791301,-0.35180680241470136,0.05032230729439802,-2.2772828205844813,-0.12252705572048823,1.88234917478772,0.942396786118547,0.4405845660664512,-0.01713434490897064,0.4918648384132426,0.06932151525936339,0.8923063739398738,-0.4459677048212257,0.009832029541656812
1691406552.6014128,-0.07160589762470058,-0.35180091625156473,0.05032397773025328,-2.277279201306795,-0.12252644536892573,1.8823498854122713,0.9423932257344324,0.44058547424411193,-0.017133537967208668,0.4918652148026268,0.06932050070045008,0.8923051510429738,-0.4459702784090927,0.00983343177791636
1691406552.7002308,-0.07160721297459251,-0.3518048928516613,0.05032591780308833,-2.2772808717426503,-0.12252705572048823,1.882348461256599,0.942396786118547,0.44058540142061897,-0.017133544972339092,0.4918683321831453,0.06931909301495634,0.8923057685331331,-0.44596920661909273,0.009835930744733856
